!!!!SEGMENT: pl-wtm--r-1581--001_stefani-jozef--o-salutaris-hostia.krn
!!!cenid: 18xx:2335
!!!COM: Stefani, Józef
!!!COM-rismid: pe30024097
!!!CDT: 1800/04/16-1876/03/19
!!!CNT: Polish
!!!OTL: O salutaris hostia
!!!PDT:
!!!AGN: Secular
!!!SMS-siglum: PL-Wtm
!!!SMS-shelfmark: R 1581
!!!SMS-shelfwork: 001 W
!!!SMS-variant:
!!!SMS-altvar:
!!!NIFC-rismid: 1001115579
!!!URL-scan: http://repozytorium.nifc.pl/skany/pl-wtm-nut--r1581
!!!ONB-nifc:
!!!OMD: Andantino.
!!!AIN: 1 alto 1 cbass 1 cello 1 clars 1 cor 7 empty 1 fagot 1 flt 1 tromt 1 viola
!!!key:
**kern	**dynam	**kern	**dynam	**kern	**text	**dynam	**kern	**text	**dynam	**kern	**text	**dynam	**kern	**text	**dynam	**kern	**text	**kern	**text	**dynam	**kern	**dynam	**kern	**dynam	**kern	**dynam	**kern	**dynam	**kern	**dynam	**kern	**dynam	**kern	**dynam	**kern	**dynam
*group5	*	*group5	*	*group4	*	*	*group4	*	*	*group4	*	*	*group3	*	*	*group3	*	*group3	*	*	*group2	*	*group2	*	*group2	*	*group1	*	*group1	*	*group1	*	*group1	*	*group1	*
*	*	*	*	*	*	*	*I""Tenori	*	*	*I""Tenori	*	*	*	*	*	*I""Soprani	*	*I""Soprani	*	*	*	*	*I""Violini	*	*I""Violini	*	*	*	*	*	*	*	*	*	*	*
*part16	*part16	*part15	*part15	*part14	*part14	*part14	*part13	*part13	*part13	*part12	*part12	*part12	*part11	*part11	*part11	*part10	*part10	*part9	*part9	*part9	*part8	*part8	*part7	*part7	*part6	*part6	*part5	*part5	*part4	*part4	*part3	*part3	*part2	*part2	*part1	*part1
*staff16	*	*staff15	*	*staff14	*staff14	*	*staff13	*staff13	*	*staff12	*staff12	*	*staff11	*staff11	*	*staff10	*staff10	*staff9	*staff9	*	*staff8	*	*staff7	*	*staff6	*	*staff5	*	*staff4	*	*staff3	*	*staff2	*	*staff1	*
*Icbass	*	*Icello	*	*Iempty	*	*	*Iempty	*	*	*Iempty	*	*	*Ialto	*	*	*Iempty	*	*Iempty	*	*	*Iviola	*	*Iempty	*	*Iempty	*	*Itromt	*	*Icor	*	*Ifagot	*	*Iclars	*	*Iflt	*
*I"C: Baſsi	*	*I"Violoncelli	*	*I"Baſso	*	*	*	*	*	*	*	*	*I"Alto	*	*	*	*	*	*	*	*I"Viole	*	*	*	*	*	*I"Tromboni	*	*I"in C. Corni	*	*I"Fagotti	*	*I"in C Clarinetti	*	*I"Flauto	*
*clefF4	*	*clefF4	*	*clefF4	*	*	*clefC4	*	*	*clefC4	*	*	*clefG2	*	*	*clefG2	*	*clefG2	*	*	*clefC3	*	*clefG2	*	*clefG2	*	*clefF4	*	*clefG2	*	*clefF4	*	*clefG2	*	*clefG2	*
*Trd0c0	*	*	*	*	*	*	*	*	*	*	*	*	*	*	*	*	*	*	*	*	*	*	*	*	*	*	*	*	*Trd0c0	*	*	*	*	*	*	*
*k[f#]	*	*k[f#]	*	*k[f#]	*	*	*k[f#]	*	*	*k[f#]	*	*	*k[f#]	*	*	*k[f#]	*	*k[f#]	*	*	*k[f#]	*	*k[f#]	*	*k[f#]	*	*k[f#]	*	*k[f#]	*	*k[f#]	*	*k[f#]	*	*k[f#]	*
*G:	*	*G:	*	*G:	*	*	*G:	*	*	*G:	*	*	*G:	*	*	*G:	*	*G:	*	*	*G:	*	*G:	*	*G:	*	*G:	*	*G:	*	*G:	*	*G:	*	*G:	*
*M4/4	*	*M4/4	*	*M4/4	*	*	*M4/4	*	*	*M4/4	*	*	*M4/4	*	*	*M4/4	*	*M4/4	*	*	*M4/4	*	*M4/4	*	*M4/4	*	*M4/4	*	*M4/4	*	*M4/4	*	*M4/4	*	*M4/4	*
*met(c)	*	*met(c)	*	*met(c)	*	*	*met(c)	*	*	*met(c)	*	*	*met(c)	*	*	*met(c)	*	*met(c)	*	*	*met(c)	*	*met(c)	*	*met(c)	*	*met(c)	*	*met(c)	*	*met(c)	*	*met(c)	*	*met(c)	*
=1	=1	=1	=1	=1	=1	=1	=1	=1	=1	=1	=1	=1	=1	=1	=1	=1	=1	=1	=1	=1	=1	=1	=1	=1	=1	=1	=1	=1	=1	=1	=1	=1	=1	=1	=1	=1
*	*	*	*	*	*	*	*	*	*	*	*	*	*	*	*	*	*	*	*	*	*	*	*	*	*	*	*	*	*	*^	*	*	*	*	*	*
*	*	*	*	*	*	*	*	*	*	*	*	*	*	*	*	*	*	*	*	*	*	*	*	*	*	*	*	*	*2\right	*	*	*	*	*	*	*	*
!	!	!	!	!	!	!	!	!	!	!	!	!	!	!	!	!	!	!	!	!	!	!	!	!	!	!	!	!	!	!LO:HP:a	!LO:DY:rj	!	!	!	!	!	!
1r	.	1r	.	1r	.	.	1r	.	.	1r	.	.	1r	.	.	1r	.	1r	.	.	1r	.	1r	.	1r	.	1r	.	2gg 2g\	>	f	1r	.	1r	.	1r	.
!	!	!	!	!	!	!	!	!	!	!	!	!	!	!	!	!	!	!	!	!	!	!	!	!	!	!	!	!	!	!	!LO:DY:rj	!	!	!	!	!	!
.	.	.	.	.	.	.	.	.	.	.	.	.	.	.	.	.	.	.	.	.	.	.	.	.	.	.	.	.	4.gg 4.g\	]	p	.	.	.	.	.	.
!	!	!	!LO:DY:b	!	!	!	!	!	!	!	!	!	!	!	!	!	!	!	!	!	!	!	!	!	!	!	!	!	!	!	!LO:DY:a	!	!	!	!	!	!
.	.	.	p	.	.	.	.	.	.	.	.	.	.	.	.	.	.	.	.	.	.	.	.	.	.	.	.	.	8gg 8g\	.	p	.	.	.	.	.	.
*	*	*	*	*	*	*	*	*	*	*	*	*	*	*	*	*	*	*	*	*	*	*	*	*	*	*	*	*	*	*v	*v	*	*	*	*	*	*
=2	=2	=2	=2	=2	=2	=2	=2	=2	=2	=2	=2	=2	=2	=2	=2	=2	=2	=2	=2	=2	=2	=2	=2	=2	=2	=2	=2	=2	=2	=2	=2	=2	=2	=2	=2	=2
*	*	*	*	*	*	*	*	*	*	*	*	*	*	*	*	*	*	*	*	*	*2\right	*	*	*	*	*	*	*	*	*	*2\right	*	*	*	*	*
!	!	!	!	!	!	!	!	!	!	!	!	!	!	!	!	!	!	!	!	!	!	!	!	!LO:DY:rj	!	!	!	!	!	!	!	!	!	!	!	!
2.GG/	.	2.GG/	.	1r	.	.	1r	.	.	1r	.	.	1r	.	.	1r	.	1r	.	.	2.d 2.B\	.	2.fn 2.G/	p	1r	.	1r	.	2.gg 2.g\	.	2.fn 2.d\	.	1r	.	16r	.
.	.	.	.	.	.	.	.	.	.	.	.	.	.	.	.	.	.	.	.	.	.	.	.	.	.	.	.	.	.	.	.	.	.	.	(16fffn\LL	.
.	.	.	.	.	.	.	.	.	.	.	.	.	.	.	.	.	.	.	.	.	.	.	.	.	.	.	.	.	.	.	.	.	.	.	16ddd\	.
.	.	.	.	.	.	.	.	.	.	.	.	.	.	.	.	.	.	.	.	.	.	.	.	.	.	.	.	.	.	.	.	.	.	.	16bb\JJ	.
.	.	.	.	.	.	.	.	.	.	.	.	.	.	.	.	.	.	.	.	.	.	.	.	.	.	.	.	.	.	.	.	.	.	.	16gg\LL	.
.	.	.	.	.	.	.	.	.	.	.	.	.	.	.	.	.	.	.	.	.	.	.	.	.	.	.	.	.	.	.	.	.	.	.	16ffn\	.
.	.	.	.	.	.	.	.	.	.	.	.	.	.	.	.	.	.	.	.	.	.	.	.	.	.	.	.	.	.	.	.	.	.	.	16dd\	.
.	.	.	.	.	.	.	.	.	.	.	.	.	.	.	.	.	.	.	.	.	.	.	.	.	.	.	.	.	.	.	.	.	.	.	16b\JJ)	.
.	.	.	.	.	.	.	.	.	.	.	.	.	.	.	.	.	.	.	.	.	.	.	.	.	.	.	.	.	.	.	.	.	.	.	4g/	.
4r	.	4r	.	.	.	.	.	.	.	.	.	.	.	.	.	.	.	.	.	.	4r	.	4r	.	.	.	.	.	4r	.	4r	.	.	.	4r	.
=3	=3	=3	=3	=3	=3	=3	=3	=3	=3	=3	=3	=3	=3	=3	=3	=3	=3	=3	=3	=3	=3	=3	=3	=3	=3	=3	=3	=3	=3	=3	=3	=3	=3	=3	=3	=3
*	*	*	*	*	*	*	*	*	*	*	*	*	*	*	*	*	*	*	*	*	*	*	*	*	*	*	*	*	*	*^	*	*	*	*	*	*
!	!	!	!	!	!	!	!	!	!	!	!	!	!	!	!	!	!	!	!	!	!	!	!	!	!	!	!	!	!	!LO:HP:a	!LO:DY:rj	!	!	!	!	!	!
1r	.	1r	.	1r	.	.	1r	.	.	1r	.	.	1r	.	.	1r	.	1r	.	.	1r	.	1r	.	1r	.	1r	.	2gg 2g\	>	f	1r	.	1r	.	1r	.
!	!	!	!	!	!	!	!	!	!	!	!	!	!	!	!	!	!	!	!	!	!	!	!	!	!	!	!	!	!	!	!LO:DY:rj	!	!	!	!	!	!
.	.	.	.	.	.	.	.	.	.	.	.	.	.	.	.	.	.	.	.	.	.	.	.	.	.	.	.	.	4.gg 4.g\	]]	p	.	.	.	.	.	.
.	.	.	.	.	.	.	.	.	.	.	.	.	.	.	.	.	.	.	.	.	.	.	.	.	.	.	.	.	8gg 8g\	.	.	.	.	.	.	.	.
*	*	*	*	*	*	*	*	*	*	*	*	*	*	*	*	*	*	*	*	*	*	*	*	*	*	*	*	*	*	*v	*v	*	*	*	*	*	*
!!LO:PB:g=original
=4	=4	=4	=4	=4	=4	=4	=4	=4	=4	=4	=4	=4	=4	=4	=4	=4	=4	=4	=4	=4	=4	=4	=4	=4	=4	=4	=4	=4	=4	=4	=4	=4	=4	=4	=4	=4
*	*	*	*	*	*	*	*	*	*	*	*	*	*	*	*	*	*	*	*	*	*	*	*	*	*	*	*	*	*	*	*^	*	*^	*	*	*
!	!	!LO:TX:a:t=//	!	!	!	!	!	!	!	!	!	!	!	!	!	!	!	!	!	!	!	!	!	!	!	!	!	!	!	!	!	!	!	!	!	!	!	!
!	!	!	!	!	!	!	!	!	!	!	!	!	!	!	!	!	!	!	!	!	!	!	!	!	!	!	!	!	!	!	!	!	!	!	!	!	!	!
2C/	.	2C/yy	.	1r	.	.	1r	.	.	1r	.	.	1r	.	.	1r	.	1r	.	.	2c\	.	2e 2G/	.	2r	.	2r	.	2gg 2g\	.	2e 2c\	2ryy	.	2r	2ryy	.	16r	.
.	.	.	.	.	.	.	.	.	.	.	.	.	.	.	.	.	.	.	.	.	.	.	.	.	.	.	.	.	.	.	.	.	.	.	.	.	(16g/LL	.
.	.	.	.	.	.	.	.	.	.	.	.	.	.	.	.	.	.	.	.	.	.	.	.	.	.	.	.	.	.	.	.	.	.	.	.	.	16cc/	.
.	.	.	.	.	.	.	.	.	.	.	.	.	.	.	.	.	.	.	.	.	.	.	.	.	.	.	.	.	.	.	.	.	.	.	.	.	16ee/JJ	.
.	.	.	.	.	.	.	.	.	.	.	.	.	.	.	.	.	.	.	.	.	.	.	.	.	.	.	.	.	.	.	.	.	.	.	.	.	16gg\LL	.
.	.	.	.	.	.	.	.	.	.	.	.	.	.	.	.	.	.	.	.	.	.	.	.	.	.	.	.	.	.	.	.	.	.	.	.	.	16ccc\	.
.	.	.	.	.	.	.	.	.	.	.	.	.	.	.	.	.	.	.	.	.	.	.	.	.	.	.	.	.	.	.	.	.	.	.	.	.	16eee\	.
.	.	.	.	.	.	.	.	.	.	.	.	.	.	.	.	.	.	.	.	.	.	.	.	.	.	.	.	.	.	.	.	.	.	.	.	.	16ccc\JJ	.
!	!LO:DY:rj	!	!LO:DY:b:rj	!	!	!	!	!	!	!	!	!	!	!	!	!	!	!	!	!	!	!	!	!LO:DY:rj	!	!LO:DY:rj	!	!	!	!LO:DY:rj	!	!	!LO:DY:rj	!	!	!	!	!
4GG/	f	4GG/yy	fy	.	.	.	.	.	.	.	.	.	.	.	.	.	.	.	.	.	4d 4B\	.	4g 4G/	f	4gg 4b 4d\	f	4GG/	.	4gg 4g\	f	4d 4B\	4ryy	f	4r	4ryy	.	4ggg\)	.
4r	.	4ryy	.	.	.	.	.	.	.	.	.	.	.	.	.	.	.	.	.	.	4r	.	4r	.	4r	.	4r	.	4r	.	(8g\L	4rGG	.	([4dd/	8b\L	.	4r	.
.	.	.	.	.	.	.	.	.	.	.	.	.	.	.	.	.	.	.	.	.	.	.	.	.	.	.	.	.	.	.	8f#\J	.	.	.	8a\J	.	.	.
=5	=5	=5	=5	=5	=5	=5	=5	=5	=5	=5	=5	=5	=5	=5	=5	=5	=5	=5	=5	=5	=5	=5	=5	=5	=5	=5	=5	=5	=5	=5	=5	=5	=5	=5	=5	=5	=5	=5
*	*	*	*	*	*	*	*	*	*	*	*	*	*	*	*	*	*	*	*	*	*	*	*	*	*	*	*	*	*	*	*	*	*	*	*2\right	*	*	*
1r	.	1ryy	.	1ryy	.	.	1ryy	.	.	1ryy	.	.	1ryy	.	.	1ryy	.	1ryy	.	.	1r	.	1r	.	1r	.	1r	.	1r	.	4e\	1r	.	4dd/]	2.g\	.	1r	.
.	.	.	.	.	.	.	.	.	.	.	.	.	.	.	.	.	.	.	.	.	.	.	.	.	.	.	.	.	.	.	4e-X\	.	.	4cc/	.	.	.	.
.	.	.	.	.	.	.	.	.	.	.	.	.	.	.	.	.	.	.	.	.	.	.	.	.	.	.	.	.	.	.	4d\	.	.	4b/	.	.	.	.
.	.	.	.	.	.	.	.	.	.	.	.	.	.	.	.	.	.	.	.	.	.	.	.	.	.	.	.	.	.	.	4c\	.	.	4a/	4f#\	.	.	.
=6	=6	=6	=6	=6	=6	=6	=6	=6	=6	=6	=6	=6	=6	=6	=6	=6	=6	=6	=6	=6	=6	=6	=6	=6	=6	=6	=6	=6	=6	=6	=6	=6	=6	=6	=6	=6	=6	=6
*	*	*	*	*	*	*	*	*	*	*	*	*	*	*	*	*	*	*	*	*	*	*	*	*	*	*	*	*	*^	*	*	*	*	*	*	*	*	*
1r	.	1ryy	.	1ryy	.	.	1ryy	.	.	1ryy	.	.	1ryy	.	.	1ryy	.	1ryy	.	.	1r	.	1r	.	1r	.	2r	.	2r	2ryy	.	2B\)	2r	.	2dd/)	2g\	.	2r	.
.	.	.	.	.	.	.	.	.	.	.	.	.	.	.	.	.	.	.	.	.	.	.	.	.	.	.	2BB^/	.	2ff#X^</	2ff#X\	.	2B\	2BB^\	.	2dd#Xt/	2a^\	.	2ddd#X^<t\	.
*	*	*	*	*	*	*	*	*	*	*	*	*	*	*	*	*	*	*	*	*	*	*	*	*	*	*	*	*	*	*	*	*v	*v	*	*	*	*	*	*
=7	=7	=7	=7	=7	=7	=7	=7	=7	=7	=7	=7	=7	=7	=7	=7	=7	=7	=7	=7	=7	=7	=7	=7	=7	=7	=7	=7	=7	=7	=7	=7	=7	=7	=7	=7	=7	=7	=7
1r	.	1ryy	.	1ryy	.	.	1ryy	.	.	1ryy	.	.	1ryy	.	.	1ryy	.	1ryy	.	.	1r	.	1r	.	1r	.	4C/	.	2.gg/	2ee\	.	4c 4C\	.	(4ee/	4g\	.	(4eee\	.
.	.	.	.	.	.	.	.	.	.	.	.	.	.	.	.	.	.	.	.	.	.	.	.	.	.	.	4C#X/	.	.	.	.	4c#X 4C#X\	.	4gg/	4b-X\	.	4ggg\	.
*	*	*	*	*	*	*	*	*	*	*	*	*	*	*	*	*	*	*	*	*	*	*	*	*	*	*	*2\right	*	*	*	*	*	*	*	*	*	*	*
.	.	.	.	.	.	.	.	.	.	.	.	.	.	.	.	.	.	.	.	.	.	.	.	.	.	.	2D\	.	.	2dd\	.	2d 2D\	.	4a/	2a\	.	4aa\	.
.	.	.	.	.	.	.	.	.	.	.	.	.	.	.	.	.	.	.	.	.	.	.	.	.	.	.	.	.	4ff#X/	.	.	.	.	4dd/)	.	.	4ddd\)	.
=8	=8	=8	=8	=8	=8	=8	=8	=8	=8	=8	=8	=8	=8	=8	=8	=8	=8	=8	=8	=8	=8	=8	=8	=8	=8	=8	=8	=8	=8	=8	=8	=8	=8	=8	=8	=8	=8	=8
4r	.	4ryy	.	1ryy	.	.	1ryy	.	.	1ryy	.	.	1ryy	.	.	1ryy	.	1ryy	.	.	4r	.	4r	.	4r	.	4E\	.	4gg/	4ee\	.	4e 4E\	.	4b/	4g\	.	4bb\	.
8.r	.	8.ryy	.	.	.	.	.	.	.	.	.	.	.	.	.	.	.	.	.	.	8.r	.	8.r	f	8.r	f	8.r	f	8.r	4ryy	f	8.r	.	8.r	4ryy	f	8.r	f
!	!LO:DY:rj	!	!LO:DY:b:rj	!	!	!	!	!	!	!	!	!	!	!	!	!	!	!	!	!	!	!	!	!	!	!	!	!	!	!	!	!	!	!	!	!	!	!
16AA/	f	16AA/yy	fy	.	.	.	.	.	.	.	.	.	.	.	.	.	.	.	.	.	16e 16A/	.	16cc#X 16e/	.	16gg 16a\	.	16AA/	.	16gg 16ee\	.	.	16A 16AA\	.	16gg 16cc#X\	.	.	16ggg\	.
*	*	*	*	*	*	*	*	*	*	*	*	*	*	*	*	*	*	*	*	*	*	*	*	*	*2\right	*	*	*	*	*	*	*	*	*	*	*	*2\right	*
!	!	!	!	!	!	!	!	!	!	!	!	!	!	!	!	!	!	!	!	!	!	!	!	!	!	!	!	!	!LO:TX:a:t=P:problem=brak początku ligatur	!	!	!LO:TX:a:t=P:problem=brak początku ligatur	!	!	!	!	!	!
2AA/	.	2AA/yy	.	.	.	.	.	.	.	.	.	.	.	.	.	.	.	.	.	.	2e 2A/	.	2cc# 2e/	.	2gg 2a\	.	2AA/	.	[2gg [2ee\	2ryy	.	[2A [2AA\	.	2gg 2cc#\	2ryy	.	(2ggg\	.
*	*	*	*	*	*	*	*	*	*	*	*	*	*	*	*	*	*	*	*	*	*	*	*	*	*	*	*	*	*v	*v	*	*	*	*v	*v	*	*	*
!!LO:PB:g=original
=9	=9	=9	=9	=9	=9	=9	=9	=9	=9	=9	=9	=9	=9	=9	=9	=9	=9	=9	=9	=9	=9	=9	=9	=9	=9	=9	=9	=9	=9	=9	=9	=9	=9	=9	=9	=9
1r	.	1ryy	.	1r	.	.	1r	.	.	1r	.	.	1r	.	.	1r	.	1r	.	.	1r	.	1r	.	1r	.	1r	.	1gg] 1ee]	.	1A_ 1AA]	.	1r	.	16ggg\LL	.
.	.	.	.	.	.	.	.	.	.	.	.	.	.	.	.	.	.	.	.	.	.	.	.	.	.	.	.	.	.	.	.	.	.	.	16fff#\	.
.	.	.	.	.	.	.	.	.	.	.	.	.	.	.	.	.	.	.	.	.	.	.	.	.	.	.	.	.	.	.	.	.	.	.	16eee\	.
.	.	.	.	.	.	.	.	.	.	.	.	.	.	.	.	.	.	.	.	.	.	.	.	.	.	.	.	.	.	.	.	.	.	.	16ddd\JJ	.
.	.	.	.	.	.	.	.	.	.	.	.	.	.	.	.	.	.	.	.	.	.	.	.	.	.	.	.	.	.	.	.	.	.	.	16ccc#X\LL	.
.	.	.	.	.	.	.	.	.	.	.	.	.	.	.	.	.	.	.	.	.	.	.	.	.	.	.	.	.	.	.	.	.	.	.	16bb\	.
.	.	.	.	.	.	.	.	.	.	.	.	.	.	.	.	.	.	.	.	.	.	.	.	.	.	.	.	.	.	.	.	.	.	.	16aa\	.
.	.	.	.	.	.	.	.	.	.	.	.	.	.	.	.	.	.	.	.	.	.	.	.	.	.	.	.	.	.	.	.	.	.	.	16gg\JJ	.
.	.	.	.	.	.	.	.	.	.	.	.	.	.	.	.	.	.	.	.	.	.	.	.	.	.	.	.	.	.	.	.	.	.	.	16ff#\LL	.
.	.	.	.	.	.	.	.	.	.	.	.	.	.	.	.	.	.	.	.	.	.	.	.	.	.	.	.	.	.	.	.	.	.	.	16ee\	.
.	.	.	.	.	.	.	.	.	.	.	.	.	.	.	.	.	.	.	.	.	.	.	.	.	.	.	.	.	.	.	.	.	.	.	16dd\	.
.	.	.	.	.	.	.	.	.	.	.	.	.	.	.	.	.	.	.	.	.	.	.	.	.	.	.	.	.	.	.	.	.	.	.	16cc#X\JJ	.
.	.	.	.	.	.	.	.	.	.	.	.	.	.	.	.	.	.	.	.	.	.	.	.	.	.	.	.	.	.	.	.	.	.	.	16b\LL	.
.	.	.	.	.	.	.	.	.	.	.	.	.	.	.	.	.	.	.	.	.	.	.	.	.	.	.	.	.	.	.	.	.	.	.	16a\	.
.	.	.	.	.	.	.	.	.	.	.	.	.	.	.	.	.	.	.	.	.	.	.	.	.	.	.	.	.	.	.	.	.	.	.	16b\	.
.	.	.	.	.	.	.	.	.	.	.	.	.	.	.	.	.	.	.	.	.	.	.	.	.	.	.	.	.	.	.	.	.	.	.	16cc#\JJ)	.
=10	=10	=10	=10	=10	=10	=10	=10	=10	=10	=10	=10	=10	=10	=10	=10	=10	=10	=10	=10	=10	=10	=10	=10	=10	=10	=10	=10	=10	=10	=10	=10	=10	=10	=10	=10	=10
*	*	*	*	*	*	*	*	*	*	*	*	*	*	*	*	*	*	*	*	*	*	*	*	*	*	*	*	*	*^	*	*	*	*	*	*	*
1r	.	1ryy	.	1ryy	.	.	1ryy	.	.	1ryy	.	.	1ryy	.	.	1ryy	.	1ryy	.	.	1r	.	1r	.	1r	.	1r	.	[1ff#X	[1dd	.	1A_ [>1D	.	1r	.	[2ddT\	.
.	.	.	.	.	.	.	.	.	.	.	.	.	.	.	.	.	.	.	.	.	.	.	.	.	.	.	.	.	.	.	.	.	.	.	.	8dd\L]	.
.	.	.	.	.	.	.	.	.	.	.	.	.	.	.	.	.	.	.	.	.	.	.	.	.	.	.	.	.	.	.	.	.	.	.	.	(16cc#X\L	.
.	.	.	.	.	.	.	.	.	.	.	.	.	.	.	.	.	.	.	.	.	.	.	.	.	.	.	.	.	.	.	.	.	.	.	.	16dd\JJ)	.
.	.	.	.	.	.	.	.	.	.	.	.	.	.	.	.	.	.	.	.	.	.	.	.	.	.	.	.	.	.	.	.	.	.	.	.	(16ee#X\LL	.
.	.	.	.	.	.	.	.	.	.	.	.	.	.	.	.	.	.	.	.	.	.	.	.	.	.	.	.	.	.	.	.	.	.	.	.	16ff#\JJ)	.
.	.	.	.	.	.	.	.	.	.	.	.	.	.	.	.	.	.	.	.	.	.	.	.	.	.	.	.	.	.	.	.	.	.	.	.	(16gg#X\LL	.
.	.	.	.	.	.	.	.	.	.	.	.	.	.	.	.	.	.	.	.	.	.	.	.	.	.	.	.	.	.	.	.	.	.	.	.	16aa\JJ)	.
=11	=11	=11	=11	=11	=11	=11	=11	=11	=11	=11	=11	=11	=11	=11	=11	=11	=11	=11	=11	=11	=11	=11	=11	=11	=11	=11	=11	=11	=11	=11	=11	=11	=11	=11	=11	=11	=11
2r	.	2ryy	.	1ryy	.	.	1ryy	.	.	1ryy	.	.	1ryy	.	.	1ryy	.	1ryy	.	.	2r	.	2r	.	2r	.	2r	.	2ff#X/]	2dd\]	.	2A] 2D\]	.	2r	.	8ddd'\L	.
.	.	.	.	.	.	.	.	.	.	.	.	.	.	.	.	.	.	.	.	.	.	.	.	.	.	.	.	.	.	.	.	.	.	.	.	(16ccc#X\L	.
.	.	.	.	.	.	.	.	.	.	.	.	.	.	.	.	.	.	.	.	.	.	.	.	.	.	.	.	.	.	.	.	.	.	.	.	16ddd\JJ)	.
.	.	.	.	.	.	.	.	.	.	.	.	.	.	.	.	.	.	.	.	.	.	.	.	.	.	.	.	.	.	.	.	.	.	.	.	(16fff#\LL	.
.	.	.	.	.	.	.	.	.	.	.	.	.	.	.	.	.	.	.	.	.	.	.	.	.	.	.	.	.	.	.	.	.	.	.	.	16ddd\)	.
.	.	.	.	.	.	.	.	.	.	.	.	.	.	.	.	.	.	.	.	.	.	.	.	.	.	.	.	.	.	.	.	.	.	.	.	16aa'\	.
.	.	.	.	.	.	.	.	.	.	.	.	.	.	.	.	.	.	.	.	.	.	.	.	.	.	.	.	.	.	.	.	.	.	.	.	16ff#'\JJ	.
!	!LO:DY:rj	!	!LO:DY:b:rj	!	!	!	!	!	!	!	!	!	!	!	!	!	!	!	!	!	!	!	!	!LO:DY:rj	!	!	!	!LO:DY:rj	!	!	!	!	!LO:DY:rj	!	!LO:DY:rj	!	!
4.D;\	f	4.D;\yy	fy	.	.	.	.	.	.	.	.	.	.	.	.	.	.	.	.	.	4.a 4.d\	.	4.f# 4.A;/	f	4.dd 4.f#;/	.	4.D;\	f	4.ff#;/	4.dd\	.	4.A 4.D;\	f	4.dd 4.f#;/	f	4.dd;\	.
8r	.	8ryy	.	.	.	.	.	.	.	.	.	.	.	.	.	.	.	.	.	.	8r	.	8r	.	8r	.	8r	.	8r	8ryy	.	8r	.	8r	.	8ddd\	.
*	*	*	*	*	*	*	*	*	*	*	*	*	*	*	*	*	*	*	*	*	*	*	*	*	*	*	*	*	*v	*v	*	*	*	*	*	*	*
!!LO:PB:g=original
=12	=12	=12	=12	=12	=12	=12	=12	=12	=12	=12	=12	=12	=12	=12	=12	=12	=12	=12	=12	=12	=12	=12	=12	=12	=12	=12	=12	=12	=12	=12	=12	=12	=12	=12	=12	=12
!	!	!LO:TX:a:t=//	!	!	!	!	!	!	!	!	!	!	!	!	!	!	!	!	!	!	!	!	!	!	!	!	!	!	!	!	!	!	!	!	!	!
8D\	.	8D\yy	.	1ryy	.	.	1ryy	.	.	1ryy	.	.	1ryy	.	.	1ryy	.	1ryy	.	.	8r	.	8r	.	8r	.	1r	.	1r	.	1r	.	1r	.	16cccn'\LL	.
.	.	.	.	.	.	.	.	.	.	.	.	.	.	.	.	.	.	.	.	.	.	.	.	.	.	.	.	.	.	.	.	.	.	.	16ddd'\	.
!	!	!	!	!	!	!	!	!	!	!	!	!	!	!	!	!	!	!	!	!	!	!	!	!	!LO:TX:b:t=pizz.	!	!	!	!	!	!	!	!	!	!	!
8r	.	8ryy	.	.	.	.	.	.	.	.	.	.	.	.	.	.	.	.	.	.	8A/	.	8d 8c/	.	8f#/	.	.	.	.	.	.	.	.	.	16aa'\	.
.	.	.	.	.	.	.	.	.	.	.	.	.	.	.	.	.	.	.	.	.	.	.	.	.	.	.	.	.	.	.	.	.	.	.	16ddd'\JJ	.
*rep	*	*repy	*	*	*	*	*	*	*	*	*	*	*	*	*	*	*	*	*	*	*rep	*	*rep	*	*rep	*	*	*	*	*	*	*	*	*	*	*
8D\	.	8D\yy	.	.	.	.	.	.	.	.	.	.	.	.	.	.	.	.	.	.	8r	.	8r	.	8r	.	.	.	.	.	.	.	.	.	16ff#'\LL	.
.	.	.	.	.	.	.	.	.	.	.	.	.	.	.	.	.	.	.	.	.	.	.	.	.	.	.	.	.	.	.	.	.	.	.	16ddd'\	.
8r	.	8ryy	.	.	.	.	.	.	.	.	.	.	.	.	.	.	.	.	.	.	8A/	.	8d 8c/	.	8f#/	.	.	.	.	.	.	.	.	.	16dd'\	.
.	.	.	.	.	.	.	.	.	.	.	.	.	.	.	.	.	.	.	.	.	.	.	.	.	.	.	.	.	.	.	.	.	.	.	16ddd'\JJ	.
*Xrep	*	*Xrep	*	*	*	*	*	*	*	*	*	*	*	*	*	*	*	*	*	*	*Xrep	*	*Xrep	*	*Xrep	*	*	*	*	*	*	*	*	*	*	*
*rep	*	*repy	*	*	*	*	*	*	*	*	*	*	*	*	*	*	*	*	*	*	*rep	*	*rep	*	*rep	*	*	*	*	*	*	*	*	*	*	*
8D\	.	8D\yy	.	.	.	.	.	.	.	.	.	.	.	.	.	.	.	.	.	.	8r	.	8r	.	8r	.	.	.	.	.	.	.	.	.	16cc'\LL	.
.	.	.	.	.	.	.	.	.	.	.	.	.	.	.	.	.	.	.	.	.	.	.	.	.	.	.	.	.	.	.	.	.	.	.	16ddd'\	.
8r	.	8ryy	.	.	.	.	.	.	.	.	.	.	.	.	.	.	.	.	.	.	8A/	.	8d 8c/	.	8f#/	.	.	.	.	.	.	.	.	.	16a'\	.
.	.	.	.	.	.	.	.	.	.	.	.	.	.	.	.	.	.	.	.	.	.	.	.	.	.	.	.	.	.	.	.	.	.	.	16ddd'\JJ	.
*Xrep	*	*Xrep	*	*	*	*	*	*	*	*	*	*	*	*	*	*	*	*	*	*	*Xrep	*	*Xrep	*	*Xrep	*	*	*	*	*	*	*	*	*	*	*
*rep	*	*repy	*	*	*	*	*	*	*	*	*	*	*	*	*	*	*	*	*	*	*rep	*	*rep	*	*rep	*	*	*	*	*	*	*	*	*	*	*
8D\	.	8D\yy	.	.	.	.	.	.	.	.	.	.	.	.	.	.	.	.	.	.	8r	.	8r	.	8r	.	.	.	.	.	.	.	.	.	16f#'\LL	.
.	.	.	.	.	.	.	.	.	.	.	.	.	.	.	.	.	.	.	.	.	.	.	.	.	.	.	.	.	.	.	.	.	.	.	16ddd'\	.
8r	.	8ryy	.	.	.	.	.	.	.	.	.	.	.	.	.	.	.	.	.	.	8A/	.	8d 8c/	.	8f#/	.	.	.	.	.	.	.	.	.	16d'\	.
.	.	.	.	.	.	.	.	.	.	.	.	.	.	.	.	.	.	.	.	.	.	.	.	.	.	.	.	.	.	.	.	.	.	.	16ddd'\JJ	.
*Xrep	*	*Xrep	*	*	*	*	*	*	*	*	*	*	*	*	*	*	*	*	*	*	*Xrep	*	*Xrep	*	*Xrep	*	*	*	*	*	*	*	*	*	*	*
=13	=13	=13	=13	=13	=13	=13	=13	=13	=13	=13	=13	=13	=13	=13	=13	=13	=13	=13	=13	=13	=13	=13	=13	=13	=13	=13	=13	=13	=13	=13	=13	=13	=13	=13	=13	=13
8G\	.	8G\yy	.	1ryy	.	.	1ryy	.	.	1ryy	.	.	1ryy	.	.	1ryy	.	1ryy	.	.	8r	.	8r	.	8r	.	1ryy	.	1ryy	.	1ryy	.	1ryy	.	(16bb\LL	.
.	.	.	.	.	.	.	.	.	.	.	.	.	.	.	.	.	.	.	.	.	.	.	.	.	.	.	.	.	.	.	.	.	.	.	16gg\)	.
8r	.	8ryy	.	.	.	.	.	.	.	.	.	.	.	.	.	.	.	.	.	.	8G/	.	8d 8B/	.	8g/	.	.	.	.	.	.	.	.	.	16bb'\	.
.	.	.	.	.	.	.	.	.	.	.	.	.	.	.	.	.	.	.	.	.	.	.	.	.	.	.	.	.	.	.	.	.	.	.	16ddd'\JJ	.
*rep	*	*repy	*	*	*	*	*	*	*	*	*	*	*	*	*	*	*	*	*	*	*rep	*	*rep	*	*rep	*	*	*	*	*	*	*	*	*	*	*
8G\	.	8G\yy	.	.	.	.	.	.	.	.	.	.	.	.	.	.	.	.	.	.	8r	.	8r	.	8r	.	.	.	.	.	.	.	.	.	(16ggg\LL	.
.	.	.	.	.	.	.	.	.	.	.	.	.	.	.	.	.	.	.	.	.	.	.	.	.	.	.	.	.	.	.	.	.	.	.	16fff#\)	.
8r	.	8ryy	.	.	.	.	.	.	.	.	.	.	.	.	.	.	.	.	.	.	8G/	.	8d 8B/	.	8g/	.	.	.	.	.	.	.	.	.	16eee'\	.
.	.	.	.	.	.	.	.	.	.	.	.	.	.	.	.	.	.	.	.	.	.	.	.	.	.	.	.	.	.	.	.	.	.	.	16ddd'\JJ	.
*Xrep	*	*Xrep	*	*	*	*	*	*	*	*	*	*	*	*	*	*	*	*	*	*	*Xrep	*	*Xrep	*	*Xrep	*	*	*	*	*	*	*	*	*	*	*
*rep	*	*repy	*	*	*	*	*	*	*	*	*	*	*	*	*	*	*	*	*	*	*rep	*	*rep	*	*rep	*	*	*	*	*	*	*	*	*	*	*
8G\	.	8G\yy	.	.	.	.	.	.	.	.	.	.	.	.	.	.	.	.	.	.	8r	.	8r	.	8r	.	.	.	.	.	.	.	.	.	(16eee\LL	.
.	.	.	.	.	.	.	.	.	.	.	.	.	.	.	.	.	.	.	.	.	.	.	.	.	.	.	.	.	.	.	.	.	.	.	16ddd\)	.
8r	.	8ryy	.	.	.	.	.	.	.	.	.	.	.	.	.	.	.	.	.	.	8G/	.	8d 8B/	.	8g/	.	.	.	.	.	.	.	.	.	16ccc'\	.
.	.	.	.	.	.	.	.	.	.	.	.	.	.	.	.	.	.	.	.	.	.	.	.	.	.	.	.	.	.	.	.	.	.	.	16bb'\JJ	.
*Xrep	*	*Xrep	*	*	*	*	*	*	*	*	*	*	*	*	*	*	*	*	*	*	*Xrep	*	*Xrep	*	*Xrep	*	*	*	*	*	*	*	*	*	*	*
*rep	*	*repy	*	*	*	*	*	*	*	*	*	*	*	*	*	*	*	*	*	*	*rep	*	*rep	*	*rep	*	*	*	*	*	*	*	*	*	*	*
8G\	.	8G\yy	.	.	.	.	.	.	.	.	.	.	.	.	.	.	.	.	.	.	8r	.	8r	.	8r	.	.	.	.	.	.	.	.	.	(16ccc\LL	.
.	.	.	.	.	.	.	.	.	.	.	.	.	.	.	.	.	.	.	.	.	.	.	.	.	.	.	.	.	.	.	.	.	.	.	16bb\)	.
8r	.	8ryy	.	.	.	.	.	.	.	.	.	.	.	.	.	.	.	.	.	.	8G/	.	8d 8B/	.	8g/	.	.	.	.	.	.	.	.	.	16aa'\	.
.	.	.	.	.	.	.	.	.	.	.	.	.	.	.	.	.	.	.	.	.	.	.	.	.	.	.	.	.	.	.	.	.	.	.	16gg'\JJ	.
*Xrep	*	*Xrep	*	*	*	*	*	*	*	*	*	*	*	*	*	*	*	*	*	*	*Xrep	*	*Xrep	*	*Xrep	*	*	*	*	*	*	*	*	*	*	*
=14	=14	=14	=14	=14	=14	=14	=14	=14	=14	=14	=14	=14	=14	=14	=14	=14	=14	=14	=14	=14	=14	=14	=14	=14	=14	=14	=14	=14	=14	=14	=14	=14	=14	=14	=14	=14
8D\	.	8D\yy	.	1ryy	.	.	1ryy	.	.	1ryy	.	.	1ryy	.	.	1ryy	.	1ryy	.	.	8r	.	8r	.	8r	.	1ryy	.	1ryy	.	1ryy	.	1ryy	.	16cccn\LL	.
.	.	.	.	.	.	.	.	.	.	.	.	.	.	.	.	.	.	.	.	.	.	.	.	.	.	.	.	.	.	.	.	.	.	.	16ddd\	.
8r	.	8ryy	.	.	.	.	.	.	.	.	.	.	.	.	.	.	.	.	.	.	8A/	.	8d 8c/	.	8f#/	.	.	.	.	.	.	.	.	.	16aa\	.
.	.	.	.	.	.	.	.	.	.	.	.	.	.	.	.	.	.	.	.	.	.	.	.	.	.	.	.	.	.	.	.	.	.	.	16ddd\JJ	.
*rep	*	*repy	*	*	*	*	*	*	*	*	*	*	*	*	*	*	*	*	*	*	*rep	*	*rep	*	*rep	*	*	*	*	*	*	*	*	*	*	*
8D\	.	8D\yy	.	.	.	.	.	.	.	.	.	.	.	.	.	.	.	.	.	.	8r	.	8r	.	8r	.	.	.	.	.	.	.	.	.	16ff#\LL	.
.	.	.	.	.	.	.	.	.	.	.	.	.	.	.	.	.	.	.	.	.	.	.	.	.	.	.	.	.	.	.	.	.	.	.	16ddd\	.
8r	.	8ryy	.	.	.	.	.	.	.	.	.	.	.	.	.	.	.	.	.	.	8A/	.	8d 8c/	.	8f#/	.	.	.	.	.	.	.	.	.	16dd\	.
.	.	.	.	.	.	.	.	.	.	.	.	.	.	.	.	.	.	.	.	.	.	.	.	.	.	.	.	.	.	.	.	.	.	.	16ddd\JJ	.
*Xrep	*	*Xrep	*	*	*	*	*	*	*	*	*	*	*	*	*	*	*	*	*	*	*Xrep	*	*Xrep	*	*Xrep	*	*	*	*	*	*	*	*	*	*	*
*rep	*	*repy	*	*	*	*	*	*	*	*	*	*	*	*	*	*	*	*	*	*	*rep	*	*rep	*	*rep	*	*	*	*	*	*	*	*	*	*	*
8D\	.	8D\yy	.	.	.	.	.	.	.	.	.	.	.	.	.	.	.	.	.	.	8r	.	8r	.	8r	.	.	.	.	.	.	.	.	.	16cc\LL	.
.	.	.	.	.	.	.	.	.	.	.	.	.	.	.	.	.	.	.	.	.	.	.	.	.	.	.	.	.	.	.	.	.	.	.	16ddd\	.
8r	.	8ryy	.	.	.	.	.	.	.	.	.	.	.	.	.	.	.	.	.	.	8A/	.	8d 8c/	.	8f#/	.	.	.	.	.	.	.	.	.	16a\	.
.	.	.	.	.	.	.	.	.	.	.	.	.	.	.	.	.	.	.	.	.	.	.	.	.	.	.	.	.	.	.	.	.	.	.	16ddd\JJ	.
*Xrep	*	*Xrep	*	*	*	*	*	*	*	*	*	*	*	*	*	*	*	*	*	*	*Xrep	*	*Xrep	*	*Xrep	*	*	*	*	*	*	*	*	*	*	*
*rep	*	*repy	*	*	*	*	*	*	*	*	*	*	*	*	*	*	*	*	*	*	*rep	*	*rep	*	*rep	*	*	*	*	*	*	*	*	*	*	*
!	!	!	!	!	!	!	!	!	!	!	!	!	!	!	!	!	!	!	!	!	!	!	!	!	!	!	!	!	!	!	!	!	!	!	!LO:TX:t=P:problem=mixed beam	!
8D\	.	8D\yy	.	.	.	.	.	.	.	.	.	.	.	.	.	.	.	.	.	.	8r	.	8r	.	8r	.	.	.	.	.	.	.	.	.	16f#\LL	.
.	.	.	.	.	.	.	.	.	.	.	.	.	.	.	.	.	.	.	.	.	.	.	.	.	.	.	.	.	.	.	.	.	.	.	16ddd\	.
8r	.	8ryy	.	.	.	.	.	.	.	.	.	.	.	.	.	.	.	.	.	.	8A/	.	8d 8c/	.	8f#/	.	.	.	.	.	.	.	.	.	16d/	.
.	.	.	.	.	.	.	.	.	.	.	.	.	.	.	.	.	.	.	.	.	.	.	.	.	.	.	.	.	.	.	.	.	.	.	16ddd\JJ	.
*Xrep	*	*Xrep	*	*	*	*	*	*	*	*	*	*	*	*	*	*	*	*	*	*	*Xrep	*	*Xrep	*	*Xrep	*	*	*	*	*	*	*	*	*	*	*
!!LO:PB:g=original
=15	=15	=15	=15	=15	=15	=15	=15	=15	=15	=15	=15	=15	=15	=15	=15	=15	=15	=15	=15	=15	=15	=15	=15	=15	=15	=15	=15	=15	=15	=15	=15	=15	=15	=15	=15	=15
!	!	!LO:TX:a:t=//	!	!	!	!	!	!	!	!	!	!	!	!	!	!	!	!	!	!	!	!	!	!	!	!	!	!	!	!	!	!	!	!	!	!
8G\	.	8G\yy	.	1r	.	.	1r	.	.	1r	.	.	1r	.	.	1r	.	1r	.	.	8r	.	8r	.	8r	.	1r	.	1r	.	1r	.	1r	.	(16bb\LL	.
.	.	.	.	.	.	.	.	.	.	.	.	.	.	.	.	.	.	.	.	.	.	.	.	.	.	.	.	.	.	.	.	.	.	.	16gg\)	.
8r	.	8ryy	.	.	.	.	.	.	.	.	.	.	.	.	.	.	.	.	.	.	8G/	.	8d 8B/	.	8g/	.	.	.	.	.	.	.	.	.	16bb'\	.
.	.	.	.	.	.	.	.	.	.	.	.	.	.	.	.	.	.	.	.	.	.	.	.	.	.	.	.	.	.	.	.	.	.	.	16ddd'\JJ	.
*rep	*	*repy	*	*	*	*	*	*	*	*	*	*	*	*	*	*	*	*	*	*	*rep	*	*rep	*	*rep	*	*	*	*	*	*	*	*	*	*	*
8G\	.	8G\yy	.	.	.	.	.	.	.	.	.	.	.	.	.	.	.	.	.	.	8r	.	8r	.	8r	.	.	.	.	.	.	.	.	.	(16ggg\LL	.
.	.	.	.	.	.	.	.	.	.	.	.	.	.	.	.	.	.	.	.	.	.	.	.	.	.	.	.	.	.	.	.	.	.	.	16fff#\)	.
8r	.	8ryy	.	.	.	.	.	.	.	.	.	.	.	.	.	.	.	.	.	.	8G/	.	8d 8B/	.	8g/	.	.	.	.	.	.	.	.	.	16eee'\	.
.	.	.	.	.	.	.	.	.	.	.	.	.	.	.	.	.	.	.	.	.	.	.	.	.	.	.	.	.	.	.	.	.	.	.	16ddd'\JJ	.
*Xrep	*	*Xrep	*	*	*	*	*	*	*	*	*	*	*	*	*	*	*	*	*	*	*Xrep	*	*Xrep	*	*Xrep	*	*	*	*	*	*	*	*	*	*	*
*rep	*	*repy	*	*	*	*	*	*	*	*	*	*	*	*	*	*	*	*	*	*	*rep	*	*rep	*	*rep	*	*	*	*	*	*	*	*	*	*	*
8G\	.	8G\yy	.	.	.	.	.	.	.	.	.	.	.	.	.	.	.	.	.	.	8r	.	8r	.	8r	.	.	.	.	.	.	.	.	.	(16ccc#X\LL	.
.	.	.	.	.	.	.	.	.	.	.	.	.	.	.	.	.	.	.	.	.	.	.	.	.	.	.	.	.	.	.	.	.	.	.	16ddd\)	.
8r	.	8ryy	.	.	.	.	.	.	.	.	.	.	.	.	.	.	.	.	.	.	8G/	.	8d 8B/	.	8g/	.	.	.	.	.	.	.	.	.	16eee'\	.
.	.	.	.	.	.	.	.	.	.	.	.	.	.	.	.	.	.	.	.	.	.	.	.	.	.	.	.	.	.	.	.	.	.	.	16ddd'\JJ	.
*Xrep	*	*Xrep	*	*	*	*	*	*	*	*	*	*	*	*	*	*	*	*	*	*	*Xrep	*	*Xrep	*	*Xrep	*	*	*	*	*	*	*	*	*	*	*
*rep	*	*repy	*	*	*	*	*	*	*	*	*	*	*	*	*	*	*	*	*	*	*rep	*	*rep	*	*rep	*	*	*	*	*	*	*	*	*	*	*
8G\	.	8G\yy	.	.	.	.	.	.	.	.	.	.	.	.	.	.	.	.	.	.	8r	.	8r	.	8r	.	.	.	.	.	.	.	.	.	(16cccn\LL	.
.	.	.	.	.	.	.	.	.	.	.	.	.	.	.	.	.	.	.	.	.	.	.	.	.	.	.	.	.	.	.	.	.	.	.	16bb\)	.
8r	.	8ryy	.	.	.	.	.	.	.	.	.	.	.	.	.	.	.	.	.	.	8G/	.	8d 8B/	.	8g/	.	.	.	.	.	.	.	.	.	16aa'\	.
!	!	!	!	!	!	!	!	!	!	!	!	!	!	!	!	!	!	!	!	!	!LO:TX:b:t=arco	!	!	!	!LO:TX:a:t=arco	!	!	!	!	!	!	!	!	!	!	!
.	.	.	.	.	.	.	.	.	.	.	.	.	.	.	.	.	.	.	.	.	.	.	.	.	.	.	.	.	.	.	.	.	.	.	16gg'\JJ	.
*Xrep	*	*Xrep	*	*	*	*	*	*	*	*	*	*	*	*	*	*	*	*	*	*	*Xrep	*	*Xrep	*	*Xrep	*	*	*	*	*	*	*	*	*	*	*
=16	=16	=16	=16	=16	=16	=16	=16	=16	=16	=16	=16	=16	=16	=16	=16	=16	=16	=16	=16	=16	=16	=16	=16	=16	=16	=16	=16	=16	=16	=16	=16	=16	=16	=16	=16	=16
!LO:TX:a:t=arco	!LO:DY:rj	!LO:TX:a:t=arco	!LO:DY:b:rj	!	!	!	!	!	!	!	!	!	!	!	!	!	!	!	!	!	!	!	!	!	!	!LO:DY:rj	!	!	!	!	!	!LO:DY:rj	!	!LO:DY:rj	!	!
8.BB/L	f	8.BB/Lyy	fy	1ryy	.	.	1ryy	.	.	1ryy	.	.	1ryy	.	.	1ryy	.	1ryy	.	.	8.dL 8.B/	.	8.ddL 8.g/	.	8.gg\L	f	8.B\L	.	8.ddL 8.g\	.	8.BL 8.BB\	f	8.ggL 8.dd\	f	8.ggg\L	.
16BB/Jk	.	16BB/Jkyy	.	.	.	.	.	.	.	.	.	.	.	.	.	.	.	.	.	.	16dJk 16B/	.	16ddJk 16g/	.	16gg\Jk	.	16B\Jk	.	16ddJk 16g\	.	16BJk 16BB\	.	16ggJk 16dd\	.	16ggg\Jk	.
4BB/	.	4BB/yy	.	.	.	.	.	.	.	.	.	.	.	.	.	.	.	.	.	.	4d 4B/	.	4dd 4g/	.	4gg\	.	4B\	.	4dd 4g\	.	4B 4BB\	.	4gg 4dd\	.	4ggg\	.
2r	.	2ryy	.	.	.	.	.	.	.	.	.	.	.	.	.	.	.	.	.	.	2r	.	2r	.	2r	.	2r	.	2r	.	2r	.	2r	.	(16ggg\LL	.
.	.	.	.	.	.	.	.	.	.	.	.	.	.	.	.	.	.	.	.	.	.	.	.	.	.	.	.	.	.	.	.	.	.	.	16fff#\)	.
.	.	.	.	.	.	.	.	.	.	.	.	.	.	.	.	.	.	.	.	.	.	.	.	.	.	.	.	.	.	.	.	.	.	.	16eee'\	.
.	.	.	.	.	.	.	.	.	.	.	.	.	.	.	.	.	.	.	.	.	.	.	.	.	.	.	.	.	.	.	.	.	.	.	16ddd'\JJ	.
.	.	.	.	.	.	.	.	.	.	.	.	.	.	.	.	.	.	.	.	.	.	.	.	.	.	.	.	.	.	.	.	.	.	.	(16ccc\LL	.
.	.	.	.	.	.	.	.	.	.	.	.	.	.	.	.	.	.	.	.	.	.	.	.	.	.	.	.	.	.	.	.	.	.	.	16bb\)	.
.	.	.	.	.	.	.	.	.	.	.	.	.	.	.	.	.	.	.	.	.	.	.	.	.	.	.	.	.	.	.	.	.	.	.	16aa'\	.
.	.	.	.	.	.	.	.	.	.	.	.	.	.	.	.	.	.	.	.	.	.	.	.	.	.	.	.	.	.	.	.	.	.	.	16gg'\JJ	.
=17	=17	=17	=17	=17	=17	=17	=17	=17	=17	=17	=17	=17	=17	=17	=17	=17	=17	=17	=17	=17	=17	=17	=17	=17	=17	=17	=17	=17	=17	=17	=17	=17	=17	=17	=17	=17
!	!LO:DY:rj	!	!LO:DY:b:rj	!	!	!	!	!	!	!	!	!	!	!	!	!	!	!	!	!	!	!	!	!	!	!	!	!	!	!	!	!	!	!	!	!
8C/	p	8C/yy	py	1ryy	.	.	1ryy	.	.	1ryy	.	.	1ryy	.	.	1ryy	.	1ryy	.	.	8r	.	8r	.	8r	p	1r	.	1r	.	1r	.	1r	.	(16ff#\LL	.
.	.	.	.	.	.	.	.	.	.	.	.	.	.	.	.	.	.	.	.	.	.	.	.	.	.	.	.	.	.	.	.	.	.	.	16ee\	.
8r	.	8ryy	.	.	.	.	.	.	.	.	.	.	.	.	.	.	.	.	.	.	8c\	.	8e 8c/	.	8a/	.	.	.	.	.	.	.	.	.	16dd#X\	.
.	.	.	.	.	.	.	.	.	.	.	.	.	.	.	.	.	.	.	.	.	.	.	.	.	.	.	.	.	.	.	.	.	.	.	16ee\JJ)	.
*rep	*	*repy	*	*	*	*	*	*	*	*	*	*	*	*	*	*	*	*	*	*	*rep	*	*rep	*	*rep	*	*	*	*	*	*	*	*	*	*	*
8C/	.	8C/yy	.	.	.	.	.	.	.	.	.	.	.	.	.	.	.	.	.	.	8r	.	8r	.	8r	.	.	.	.	.	.	.	.	.	(16bb\LL	.
.	.	.	.	.	.	.	.	.	.	.	.	.	.	.	.	.	.	.	.	.	.	.	.	.	.	.	.	.	.	.	.	.	.	.	16aa\	.
8r	.	8ryy	.	.	.	.	.	.	.	.	.	.	.	.	.	.	.	.	.	.	8c\	.	8e 8c/	.	8a/	.	.	.	.	.	.	.	.	.	16gg#X\	.
.	.	.	.	.	.	.	.	.	.	.	.	.	.	.	.	.	.	.	.	.	.	.	.	.	.	.	.	.	.	.	.	.	.	.	16aa\JJ)	.
*Xrep	*	*Xrep	*	*	*	*	*	*	*	*	*	*	*	*	*	*	*	*	*	*	*Xrep	*	*Xrep	*	*Xrep	*	*	*	*	*	*	*	*	*	*	*
*rep	*	*repy	*	*	*	*	*	*	*	*	*	*	*	*	*	*	*	*	*	*	*rep	*	*rep	*	*rep	*	*	*	*	*	*	*	*	*	*	*
8C/	.	8C/yy	.	.	.	.	.	.	.	.	.	.	.	.	.	.	.	.	.	.	8r	.	8r	.	8r	.	.	.	.	.	.	.	.	.	(16ddd\LL	.
.	.	.	.	.	.	.	.	.	.	.	.	.	.	.	.	.	.	.	.	.	.	.	.	.	.	.	.	.	.	.	.	.	.	.	16ccc\	.
8r	.	8ryy	.	.	.	.	.	.	.	.	.	.	.	.	.	.	.	.	.	.	8c\	.	8e 8c/	.	8a/	.	.	.	.	.	.	.	.	.	16bb\	.
.	.	.	.	.	.	.	.	.	.	.	.	.	.	.	.	.	.	.	.	.	.	.	.	.	.	.	.	.	.	.	.	.	.	.	16ccc\JJ)	.
*Xrep	*	*Xrep	*	*	*	*	*	*	*	*	*	*	*	*	*	*	*	*	*	*	*Xrep	*	*Xrep	*	*Xrep	*	*	*	*	*	*	*	*	*	*	*
*rep	*	*repy	*	*	*	*	*	*	*	*	*	*	*	*	*	*	*	*	*	*	*rep	*	*rep	*	*rep	*	*	*	*	*	*	*	*	*	*	*
!	!	!	!	!	!	!	!	!	!	!	!	!	!	!	!	!	!	!	!	!	!	!	!	!	!	!	!	!	!	!	!	!	!	!	!LO:TUP:a	!
8C/	.	8C/yy	.	.	.	.	.	.	.	.	.	.	.	.	.	.	.	.	.	.	8r	.	8r	.	8r	.	.	.	.	.	.	.	.	.	(24fff#\LL	.
.	.	.	.	.	.	.	.	.	.	.	.	.	.	.	.	.	.	.	.	.	.	.	.	.	.	.	.	.	.	.	.	.	.	.	24eee\	.
.	.	.	.	.	.	.	.	.	.	.	.	.	.	.	.	.	.	.	.	.	.	.	.	.	.	.	.	.	.	.	.	.	.	.	24ddd#X\	.
8r	.	8ryy	.	.	.	.	.	.	.	.	.	.	.	.	.	.	.	.	.	.	8c\	.	8e 8c/	.	8a/	.	.	.	.	.	.	.	.	.	24eee\	.
.	.	.	.	.	.	.	.	.	.	.	.	.	.	.	.	.	.	.	.	.	.	.	.	.	.	.	.	.	.	.	.	.	.	.	24fff#\	.
.	.	.	.	.	.	.	.	.	.	.	.	.	.	.	.	.	.	.	.	.	.	.	.	.	.	.	.	.	.	.	.	.	.	.	24ggg\JJ)	.
*Xrep	*	*Xrep	*	*	*	*	*	*	*	*	*	*	*	*	*	*	*	*	*	*	*Xrep	*	*Xrep	*	*Xrep	*	*	*	*	*	*	*	*	*	*	*
=18	=18	=18	=18	=18	=18	=18	=18	=18	=18	=18	=18	=18	=18	=18	=18	=18	=18	=18	=18	=18	=18	=18	=18	=18	=18	=18	=18	=18	=18	=18	=18	=18	=18	=18	=18	=18
!	!	!LO:TX:a:t=//	!	!	!	!	!	!	!	!	!	!	!	!	!	!	!	!	!	!	!	!	!	!	!	!	!	!	!	!	!	!	!	!	!	!
8D\	.	8D\yy	.	1r	.	.	1r	.	.	1r	.	.	1r	.	.	1r	.	1r	.	.	8d\	.	8d 8B/	.	8g/	.	1r	.	1r	.	1r	.	1r	.	16ggg'\LL	.
.	.	.	.	.	.	.	.	.	.	.	.	.	.	.	.	.	.	.	.	.	.	.	.	.	.	.	.	.	.	.	.	.	.	.	(16bb\	.
8r	.	8ryy	.	.	.	.	.	.	.	.	.	.	.	.	.	.	.	.	.	.	8r	.	8r	.	8r	.	.	.	.	.	.	.	.	.	16ccc\	.
.	.	.	.	.	.	.	.	.	.	.	.	.	.	.	.	.	.	.	.	.	.	.	.	.	.	.	.	.	.	.	.	.	.	.	16ccc#X\JJ	.
*rep	*	*repy	*	*	*	*	*	*	*	*	*	*	*	*	*	*	*	*	*	*	*rep	*	*rep	*	*rep	*	*	*	*	*	*	*	*	*	*	*
8D\	.	8D\yy	.	.	.	.	.	.	.	.	.	.	.	.	.	.	.	.	.	.	8d\	.	8d 8B/	.	8g/	.	.	.	.	.	.	.	.	.	16ddd\LL)	.
.	.	.	.	.	.	.	.	.	.	.	.	.	.	.	.	.	.	.	.	.	.	.	.	.	.	.	.	.	.	.	.	.	.	.	(16gg\	.
8r	.	8ryy	.	.	.	.	.	.	.	.	.	.	.	.	.	.	.	.	.	.	8r	.	8r	.	8r	.	.	.	.	.	.	.	.	.	16aa\	.
.	.	.	.	.	.	.	.	.	.	.	.	.	.	.	.	.	.	.	.	.	.	.	.	.	.	.	.	.	.	.	.	.	.	.	16aa#X\JJ	.
*Xrep	*	*Xrep	*	*	*	*	*	*	*	*	*	*	*	*	*	*	*	*	*	*	*Xrep	*	*Xrep	*	*Xrep	*	*	*	*	*	*	*	*	*	*	*
*rep	*	*repy	*	*	*	*	*	*	*	*	*	*	*	*	*	*	*	*	*	*	*rep	*	*rep	*	*rep	*	*	*	*	*	*	*	*	*	*	*
8D\	.	8D\yy	.	.	.	.	.	.	.	.	.	.	.	.	.	.	.	.	.	.	8d\	.	8d 8B/	.	8g/	.	.	.	.	.	.	.	.	.	16bb\LL)	.
.	.	.	.	.	.	.	.	.	.	.	.	.	.	.	.	.	.	.	.	.	.	.	.	.	.	.	.	.	.	.	.	.	.	.	(16dd\	.
8r	.	8ryy	.	.	.	.	.	.	.	.	.	.	.	.	.	.	.	.	.	.	8r	.	8r	.	8r	.	.	.	.	.	.	.	.	.	16ee\	.
.	.	.	.	.	.	.	.	.	.	.	.	.	.	.	.	.	.	.	.	.	.	.	.	.	.	.	.	.	.	.	.	.	.	.	16ff#\JJ	.
*Xrep	*	*Xrep	*	*	*	*	*	*	*	*	*	*	*	*	*	*	*	*	*	*	*Xrep	*	*Xrep	*	*Xrep	*	*	*	*	*	*	*	*	*	*	*
*rep	*	*repy	*	*	*	*	*	*	*	*	*	*	*	*	*	*	*	*	*	*	*rep	*	*rep	*	*rep	*	*	*	*	*	*	*	*	*	*	*
!	!	!	!	!	!	!	!	!	!	!	!	!	!	!	!	!	!	!	!	!	!	!	!	!	!	!	!	!	!	!	!	!	!	!	!LO:SIC:v:s=16aan\LL	!
8D\	.	8D\yy	.	.	.	.	.	.	.	.	.	.	.	.	.	.	.	.	.	.	8d\	.	8d 8B/	.	8g/	.	.	.	.	.	.	.	.	.	16aa#\LL	.
.	.	.	.	.	.	.	.	.	.	.	.	.	.	.	.	.	.	.	.	.	.	.	.	.	.	.	.	.	.	.	.	.	.	.	16gg\)	.
8r	.	8ryy	.	.	.	.	.	.	.	.	.	.	.	.	.	.	.	.	.	.	8r	.	8r	.	8r	.	.	.	.	.	.	.	.	.	16ff#'\	.
.	.	.	.	.	.	.	.	.	.	.	.	.	.	.	.	.	.	.	.	.	.	.	.	.	.	.	.	.	.	.	.	.	.	.	16ee'\JJ	.
*Xrep	*	*Xrep	*	*	*	*	*	*	*	*	*	*	*	*	*	*	*	*	*	*	*Xrep	*	*Xrep	*	*Xrep	*	*	*	*	*	*	*	*	*	*	*
=19	=19	=19	=19	=19	=19	=19	=19	=19	=19	=19	=19	=19	=19	=19	=19	=19	=19	=19	=19	=19	=19	=19	=19	=19	=19	=19	=19	=19	=19	=19	=19	=19	=19	=19	=19	=19
4C^/	.	4C^/yy	.	1ryy	.	.	1ryy	.	.	1ryy	.	.	1ryy	.	.	1ryy	.	1ryy	.	.	4c^<\	.	8r	.	8r	.	1ryy	.	1ryy	.	1ryy	.	1ryy	.	8ee-X'\L	.
.	.	.	.	.	.	.	.	.	.	.	.	.	.	.	.	.	.	.	.	.	.	.	16e-XLL 16c^/	.	16a^/LL	.	.	.	.	.	.	.	.	.	(16cc\L	.
.	.	.	.	.	.	.	.	.	.	.	.	.	.	.	.	.	.	.	.	.	.	.	16e-JJ 16c/	.	16a/JJ	.	.	.	.	.	.	.	.	.	16a\JJ)	.
4r	.	4ryy	.	.	.	.	.	.	.	.	.	.	.	.	.	.	.	.	.	.	4r	.	8e-L 8c/	.	8a/L	.	.	.	.	.	.	.	.	.	2e-X^>/	.
.	.	.	.	.	.	.	.	.	.	.	.	.	.	.	.	.	.	.	.	.	.	.	8e-J 8c/	.	8a/J	.	.	.	.	.	.	.	.	.	.	.
*	*	*	*	*	*	*	*	*	*	*	*	*	*	*	*	*	*	*	*	*	*	*	*tremolo	*	*tremolo	*	*	*	*	*	*	*	*	*	*	*
2r	.	2ryy	.	.	.	.	.	.	.	.	.	.	.	.	.	.	.	.	.	.	2r	.	8e-L 8c/	.	8a/L	.	.	.	.	.	.	.	.	.	.	.
.	.	.	.	.	.	.	.	.	.	.	.	.	.	.	.	.	.	.	.	.	.	.	8e- 8c/	.	8a/	.	.	.	.	.	.	.	.	.	.	.
.	.	.	.	.	.	.	.	.	.	.	.	.	.	.	.	.	.	.	.	.	.	.	8e- 8c/	.	8a/	.	.	.	.	.	.	.	.	.	4d^>/	.
.	.	.	.	.	.	.	.	.	.	.	.	.	.	.	.	.	.	.	.	.	.	.	8e-J 8c/	.	8a/J	.	.	.	.	.	.	.	.	.	.	.
*	*	*	*	*	*	*	*	*	*	*	*	*	*	*	*	*	*	*	*	*	*	*	*Xtremolo	*	*Xtremolo	*	*	*	*	*	*	*	*	*	*	*
=20	=20	=20	=20	=20	=20	=20	=20	=20	=20	=20	=20	=20	=20	=20	=20	=20	=20	=20	=20	=20	=20	=20	=20	=20	=20	=20	=20	=20	=20	=20	=20	=20	=20	=20	=20	=20
*	*	*	*	*	*	*	*	*	*	*	*	*	*	*	*	*	*	*	*	*	*	*	*	*	*	*	*	*	*	*	*	*	*	*	*Xtuplet	*
8D\	.	8D\yy	.	1ryy	.	.	1ryy	.	.	1ryy	.	.	1ryy	.	.	1ryy	.	1ryy	.	.	8d\	.	8d 8B/	.	8g/	.	1ryy	.	1ryy	.	1ryy	.	1ryy	.	12d'/L	.
.	.	.	.	.	.	.	.	.	.	.	.	.	.	.	.	.	.	.	.	.	.	.	.	.	.	.	.	.	.	.	.	.	.	.	(12a#X/	.
8r	.	8ryy	.	.	.	.	.	.	.	.	.	.	.	.	.	.	.	.	.	.	8r	.	8r	.	8r	.	.	.	.	.	.	.	.	.	.	.
.	.	.	.	.	.	.	.	.	.	.	.	.	.	.	.	.	.	.	.	.	.	.	.	.	.	.	.	.	.	.	.	.	.	.	12b/J)	.
*rep	*	*repy	*	*	*	*	*	*	*	*	*	*	*	*	*	*	*	*	*	*	*rep	*	*rep	*	*rep	*	*	*	*	*	*	*	*	*	*	*
8D\	.	8D\yy	.	.	.	.	.	.	.	.	.	.	.	.	.	.	.	.	.	.	8d\	.	8d 8B/	.	8g/	.	.	.	.	.	.	.	.	.	12g'/L	.
.	.	.	.	.	.	.	.	.	.	.	.	.	.	.	.	.	.	.	.	.	.	.	.	.	.	.	.	.	.	.	.	.	.	.	(12cc#X/	.
8r	.	8ryy	.	.	.	.	.	.	.	.	.	.	.	.	.	.	.	.	.	.	8r	.	8r	.	8r	.	.	.	.	.	.	.	.	.	.	.
.	.	.	.	.	.	.	.	.	.	.	.	.	.	.	.	.	.	.	.	.	.	.	.	.	.	.	.	.	.	.	.	.	.	.	12dd/J)	.
*Xrep	*	*Xrep	*	*	*	*	*	*	*	*	*	*	*	*	*	*	*	*	*	*	*Xrep	*	*Xrep	*	*Xrep	*	*	*	*	*	*	*	*	*	*	*
*rep	*	*repy	*	*	*	*	*	*	*	*	*	*	*	*	*	*	*	*	*	*	*rep	*	*rep	*	*rep	*	*	*	*	*	*	*	*	*	*	*
8D\	.	8D\yy	.	.	.	.	.	.	.	.	.	.	.	.	.	.	.	.	.	.	8d\	.	8d 8B/	.	8g/	.	.	.	.	.	.	.	.	.	12b'\L	.
.	.	.	.	.	.	.	.	.	.	.	.	.	.	.	.	.	.	.	.	.	.	.	.	.	.	.	.	.	.	.	.	.	.	.	(12ff#\	.
8r	.	8ryy	.	.	.	.	.	.	.	.	.	.	.	.	.	.	.	.	.	.	8r	.	8r	.	8r	.	.	.	.	.	.	.	.	.	.	.
.	.	.	.	.	.	.	.	.	.	.	.	.	.	.	.	.	.	.	.	.	.	.	.	.	.	.	.	.	.	.	.	.	.	.	12gg\J)	.
*Xrep	*	*Xrep	*	*	*	*	*	*	*	*	*	*	*	*	*	*	*	*	*	*	*Xrep	*	*Xrep	*	*Xrep	*	*	*	*	*	*	*	*	*	*	*
*rep	*	*repy	*	*	*	*	*	*	*	*	*	*	*	*	*	*	*	*	*	*	*rep	*	*rep	*	*rep	*	*	*	*	*	*	*	*	*	*	*
8D\	.	8D\yy	.	.	.	.	.	.	.	.	.	.	.	.	.	.	.	.	.	.	8d\	.	8d 8B/	.	8g/	.	.	.	.	.	.	.	.	.	12dd'\L	.
.	.	.	.	.	.	.	.	.	.	.	.	.	.	.	.	.	.	.	.	.	.	.	.	.	.	.	.	.	.	.	.	.	.	.	(12aa#X\	.
8r	.	8ryy	.	.	.	.	.	.	.	.	.	.	.	.	.	.	.	.	.	.	8r	.	8r	.	8r	.	.	.	.	.	.	.	.	.	.	.
.	.	.	.	.	.	.	.	.	.	.	.	.	.	.	.	.	.	.	.	.	.	.	.	.	.	.	.	.	.	.	.	.	.	.	12bb\J)	.
*Xrep	*	*Xrep	*	*	*	*	*	*	*	*	*	*	*	*	*	*	*	*	*	*	*Xrep	*	*Xrep	*	*Xrep	*	*	*	*	*	*	*	*	*	*	*
!!LO:PB:g=original
=21	=21	=21	=21	=21	=21	=21	=21	=21	=21	=21	=21	=21	=21	=21	=21	=21	=21	=21	=21	=21	=21	=21	=21	=21	=21	=21	=21	=21	=21	=21	=21	=21	=21	=21	=21	=21
!	!	!LO:TX:a:t=//	!	!	!	!	!	!	!	!	!	!	!	!	!	!	!	!	!	!	!	!	!	!	!	!	!	!	!	!	!	!	!	!	!	!
8D\	.	8D\yy	.	1r	.	.	1r	.	.	1r	.	.	1r	.	.	1r	.	1r	.	.	8d\	.	8d 8B/	.	8g/	.	1r	.	1r	.	1r	.	1r	.	12gg'\L	.
.	.	.	.	.	.	.	.	.	.	.	.	.	.	.	.	.	.	.	.	.	.	.	.	.	.	.	.	.	.	.	.	.	.	.	(12ccc#X\	.
8r	.	8ryy	.	.	.	.	.	.	.	.	.	.	.	.	.	.	.	.	.	.	8r	.	8r	.	8r	.	.	.	.	.	.	.	.	.	.	.
.	.	.	.	.	.	.	.	.	.	.	.	.	.	.	.	.	.	.	.	.	.	.	.	.	.	.	.	.	.	.	.	.	.	.	12ddd\J)	.
8D\	.	8D\yy	.	.	.	.	.	.	.	.	.	.	.	.	.	.	.	.	.	.	8d\	.	8d 8B/	.	8g/	.	.	.	.	.	.	.	.	.	12bb'\L	.
.	.	.	.	.	.	.	.	.	.	.	.	.	.	.	.	.	.	.	.	.	.	.	.	.	.	.	.	.	.	.	.	.	.	.	(12fff#\	.
8r	.	8ryy	.	.	.	.	.	.	.	.	.	.	.	.	.	.	.	.	.	.	8r	.	8r	.	8r	.	.	.	.	.	.	.	.	.	.	.
.	.	.	.	.	.	.	.	.	.	.	.	.	.	.	.	.	.	.	.	.	.	.	.	.	.	.	.	.	.	.	.	.	.	.	12ggg\J)	.
8D\	.	8D\yy	.	.	.	.	.	.	.	.	.	.	.	.	.	.	.	.	.	.	8d\	.	8d 8B/	.	8g/	.	.	.	.	.	.	.	.	.	(12ccc#\L	.
.	.	.	.	.	.	.	.	.	.	.	.	.	.	.	.	.	.	.	.	.	.	.	.	.	.	.	.	.	.	.	.	.	.	.	12ddd\)	.
8r	.	8ryy	.	.	.	.	.	.	.	.	.	.	.	.	.	.	.	.	.	.	8r	.	8r	.	8r	.	.	.	.	.	.	.	.	.	.	.
.	.	.	.	.	.	.	.	.	.	.	.	.	.	.	.	.	.	.	.	.	.	.	.	.	.	.	.	.	.	.	.	.	.	.	12aa#X'\J	.
.	.	.	.	.	.	.	.	.	.	.	.	.	.	.	.	.	.	.	.	.	.	.	.	.	.	.	.	.	.	.	.	.	.	.	(8qcccn/	.
4r	.	4ryy	.	.	.	.	.	.	.	.	.	.	.	.	.	.	.	.	.	.	4r	.	4r	.	4r	.	.	.	.	.	.	.	.	.	12bb\L)	.
!	!	!	!	!	!	!	!	!	!	!	!	!	!	!	!	!	!	!	!	!	!	!	!	!	!	!	!	!	!	!	!	!	!	!	!LO:SIC:v:s=12aan\	!
.	.	.	.	.	.	.	.	.	.	.	.	.	.	.	.	.	.	.	.	.	.	.	.	.	.	.	.	.	.	.	.	.	.	.	12aa#\	.
.	.	.	.	.	.	.	.	.	.	.	.	.	.	.	.	.	.	.	.	.	.	.	.	.	.	.	.	.	.	.	.	.	.	.	12gg\J	.
=22	=22	=22	=22	=22	=22	=22	=22	=22	=22	=22	=22	=22	=22	=22	=22	=22	=22	=22	=22	=22	=22	=22	=22	=22	=22	=22	=22	=22	=22	=22	=22	=22	=22	=22	=22	=22
.	.	.	.	.	.	.	.	.	.	.	.	.	.	.	.	.	.	.	.	.	.	.	.	.	.	.	.	.	.	.	.	.	.	.	(8qgg#X/	.
!	!	!	!	!	!	!	!	!	!	!	!	!	!	!	!	!	!	!	!	!	!	!	!	!	!	!	!	!	!	!	!	!	!	!LO:DY:rj	!	!
4C/	.	4C/yy	.	1ryy	.	.	1ryy	.	.	1ryy	.	.	1ryy	.	.	1ryy	.	1ryy	.	.	4c\	.	8r	.	8r	.	1r	.	1ee 1cc^	p	1r	.	1a^> 1g	p	1aaT)	.
.	.	.	.	.	.	.	.	.	.	.	.	.	.	.	.	.	.	.	.	.	.	.	16eLL 16c^/	.	16aLL 16g^/	.	.	.	.	.	.	.	.	.	.	.
.	.	.	.	.	.	.	.	.	.	.	.	.	.	.	.	.	.	.	.	.	.	.	16eJJ 16c/	.	16aJJ 16g/	.	.	.	.	.	.	.	.	.	.	.
4r	.	4ryy	.	.	.	.	.	.	.	.	.	.	.	.	.	.	.	.	.	.	4r	.	8eL 8c/	.	8aL 8g/	.	.	.	.	.	.	.	.	.	.	.
.	.	.	.	.	.	.	.	.	.	.	.	.	.	.	.	.	.	.	.	.	.	.	8eJ 8c/	.	8aJ 8g/	.	.	.	.	.	.	.	.	.	.	.
*	*	*	*	*	*	*	*	*	*	*	*	*	*	*	*	*	*	*	*	*	*	*	*tremolo	*	*tremolo	*	*	*	*	*	*	*	*	*	*	*
2r	.	2ryy	.	.	.	.	.	.	.	.	.	.	.	.	.	.	.	.	.	.	2r	.	8eL 8c/	.	8aL 8g/	.	.	.	.	.	.	.	.	.	.	.
.	.	.	.	.	.	.	.	.	.	.	.	.	.	.	.	.	.	.	.	.	.	.	8e 8c/	.	8a 8g/	.	.	.	.	.	.	.	.	.	.	.
.	.	.	.	.	.	.	.	.	.	.	.	.	.	.	.	.	.	.	.	.	.	.	8e 8c/	.	8a 8g/	.	.	.	.	.	.	.	.	.	.	.
.	.	.	.	.	.	.	.	.	.	.	.	.	.	.	.	.	.	.	.	.	.	.	8eJ 8c/	.	8aJ 8g/	.	.	.	.	.	.	.	.	.	.	.
*	*	*	*	*	*	*	*	*	*	*	*	*	*	*	*	*	*	*	*	*	*	*	*Xtremolo	*	*Xtremolo	*	*	*	*	*	*	*	*	*	*	*
=23	=23	=23	=23	=23	=23	=23	=23	=23	=23	=23	=23	=23	=23	=23	=23	=23	=23	=23	=23	=23	=23	=23	=23	=23	=23	=23	=23	=23	=23	=23	=23	=23	=23	=23	=23	=23
.	.	.	.	.	.	.	.	.	.	.	.	.	.	.	.	.	.	.	.	.	.	.	.	.	.	.	.	.	.	.	.	.	.	.	(8qccc#X/	<
4D\	.	4D\yy	.	1ryy	.	.	1ryy	.	.	1ryy	.	.	1ryy	.	.	1ryy	.	1ryy	.	.	4d\	.	8r	.	8r	.	1r	.	1dd	<	1r	.	1a 1f#	.	2.dddT\)	.
.	.	.	.	.	.	.	.	.	.	.	.	.	.	.	.	.	.	.	.	.	.	.	16aLL 16d/	.	16ddLL 16f#/	<	.	.	.	.	.	.	.	.	.	.
.	.	.	.	.	.	.	.	.	.	.	.	.	.	.	.	.	.	.	.	.	.	.	16aJJ 16d/	.	16ddJJ 16f#/	.	.	.	.	.	.	.	.	.	.	.
4r	.	4ryy	.	.	.	.	.	.	.	.	.	.	.	.	.	.	.	.	.	.	4r	.	8aL 8d/	.	8ddL 8f#/	.	.	.	.	.	.	.	.	.	.	.
.	.	.	.	.	.	.	.	.	.	.	.	.	.	.	.	.	.	.	.	.	.	.	8aJ 8d/	.	8ddJ 8f#/	.	.	.	.	.	.	.	.	.	.	.
*	*	*	*	*	*	*	*	*	*	*	*	*	*	*	*	*	*	*	*	*	*	*	*tremolo	*	*tremolo	*	*	*	*	*	*	*	*	*	*	*
2r	.	2ryy	.	.	.	.	.	.	.	.	.	.	.	.	.	.	.	.	.	.	2r	.	8aL 8d/	.	8ddL 8f#/	[[	.	.	.	.	.	.	.	.	.	.
.	.	.	.	.	.	.	.	.	.	.	.	.	.	.	.	.	.	.	.	.	.	.	8a 8d/	.	8dd 8f#/	.	.	.	.	.	.	.	.	.	.	.
.	.	.	.	.	.	.	.	.	.	.	.	.	.	.	.	.	.	.	.	.	.	.	8a 8d/	.	8dd 8f#/	.	.	.	.	.	.	.	.	.	(16ccc#\LL	.
.	.	.	.	.	.	.	.	.	.	.	.	.	.	.	.	.	.	.	.	.	.	.	.	.	.	.	.	.	.	.	.	.	.	.	16ddd\	.
.	.	.	.	.	.	.	.	.	.	.	.	.	.	.	.	.	.	.	.	.	.	.	8aJ 8d/	.	8ddJ 8f#/	.	.	.	.	.	.	.	.	.	16eee\	.
.	.	.	.	.	.	.	.	.	.	.	.	.	.	.	.	.	.	.	.	.	.	.	.	.	.	.	.	.	.	[	.	.	.	.	16fff#\JJ	[[
*	*	*	*	*	*	*	*	*	*	*	*	*	*	*	*	*	*	*	*	*	*	*	*Xtremolo	*	*Xtremolo	*	*	*	*	*	*	*	*	*	*	*
=24	=24	=24	=24	=24	=24	=24	=24	=24	=24	=24	=24	=24	=24	=24	=24	=24	=24	=24	=24	=24	=24	=24	=24	=24	=24	=24	=24	=24	=24	=24	=24	=24	=24	=24	=24	=24
4GG/	.	4GG/yy	.	1ryy	.	.	1ryy	.	.	1ryy	.	.	1ryy	.	.	1ryy	.	1ryy	.	.	4d 4G/	.	4g/	.	4b 4g/	.	2r	.	4dd 4g/	.	2r	.	4b 4g/	.	4ggg\)	.
!	!	!	!LO:DY:b	!	!	!	!	!	!	!	!	!	!	!	!	!	!	!	!	!	!	!	!	!	!	!	!	!	!	!	!	!	!	!	!	!
4r	f	4ryy	fy	.	.	.	.	.	.	.	.	.	.	.	.	.	.	.	.	.	4r	.	4r	f	4r	f	.	f	4r	f	.	f	4r	.	4r	f
4E\	.	4E\yy	.	.	.	.	.	.	.	.	.	.	.	.	.	.	.	.	.	.	4e\	.	4b 4g/	.	4gg 4b 4e\	.	4E\	.	4gg 4ee\	.	4E\	.	4gg 4b\	.	4ggg\	.
4AA/	.	4AA/yy	.	.	.	.	.	.	.	.	.	.	.	.	.	.	.	.	.	.	4e 4A\	.	4a 4g/	.	4cc#X 4e/	.	4AA/	.	4gg 4ee\	.	4A 4AA\	.	4cc#X 4g/	.	4ccc#X\	.
!!LO:PB:g=original
=25	=25	=25	=25	=25	=25	=25	=25	=25	=25	=25	=25	=25	=25	=25	=25	=25	=25	=25	=25	=25	=25	=25	=25	=25	=25	=25	=25	=25	=25	=25	=25	=25	=25	=25	=25	=25
*	*	*	*	*	*	*	*	*	*	*	*	*	*	*	*	*	*	*	*	*	*	*	*^	*	*^	*	*	*	*^	*	*	*	*	*	*	*
!	!	!LO:TX:a:t=//	!	!	!	!	!	!	!	!	!	!	!	!	!	!	!	!	!	!	!	!	!	!	!	!	!	!	!	!	!	!	!	!	!	!	!	!	!
4D\	.	4D\yy	.	2r	.	.	2r	.	.	2r	.	.	1r	.	.	1r	.	1r	.	.	4d\	.	4a 4f#/	4ryy	.	4dd 4f#/	4ryy	.	4D\	.	4dd/	4dd\	.	4A 4D\	.	4dd 4f#/	.	4ddd\	.
8.r	.	8.ryy	.	.	.	.	.	.	.	.	.	.	.	.	.	.	.	.	.	.	8.r	.	8.r	8.ryy	.	8.r	8.ryy	.	4r	.	4r	4ryy	.	4r	.	4r	.	4r	.
16D\	.	16D\yy	.	.	.	.	.	.	.	.	.	.	.	.	.	.	.	.	.	.	16D/	.	16d/	16d\	.	16d/	16d\	.	.	.	.	.	.	.	.	.	.	.	.
4D\	.	4D\yy	.	4r	.	.	4r	.	.	4r	.	.	.	.	.	.	.	.	.	.	4D/	.	4d/	4d\	.	4d/	4d\	.	2r	.	4r	2ryy	.	4r	p	2r	.	2r	.
4r	.	4ryy	.	4G\	O!	.	4B\	.	.	4d\	O!	.	.	.	.	.	.	.	.	.	4r	.	4r	4ryy	.	4r	4ryy	.	.	.	4dd 4g/	.	.	4B 4GG\	.	.	.	.	.
*	*	*	*	*	*	*	*	*	*	*	*	*	*	*	*	*	*	*	*	*	*	*	*v	*v	*	*	*	*	*	*	*v	*v	*	*	*	*	*	*	*
*	*	*	*	*	*	*	*	*	*	*	*	*	*	*	*	*	*	*	*	*	*	*	*	*	*v	*v	*	*	*	*	*	*	*	*	*	*	*
=26	=26	=26	=26	=26	=26	=26	=26	=26	=26	=26	=26	=26	=26	=26	=26	=26	=26	=26	=26	=26	=26	=26	=26	=26	=26	=26	=26	=26	=26	=26	=26	=26	=26	=26	=26	=26
1r	.	1ryy	.	4C/	Sa-	.	4c\	.	.	4e\	Sa-	.	1ryy	.	.	1ryy	.	1ryy	.	.	1r	.	1r	.	1r	.	1r	.	4ee 4cc\	.	4c 4C\	.	1r	.	1r	.
.	.	.	.	4G\	-lu-	.	4B\	.	.	4d\	-lu-	.	.	.	.	.	.	.	.	.	.	.	.	.	.	.	.	.	4dd 4g\	.	4B 4G\	.	.	.	.	.
!	!	!	!	!	!	!	!	!	!	!LO:N:vis=4..	!	!	!	!	!	!	!	!	!	!	!	!	!	!	!	!	!	!	!	!	!	!	!	!	!	!
.	.	.	.	4.A\	-ta-	.	4.A\	.	.	4.c\	-ta-	.	.	.	.	.	.	.	.	.	.	.	.	.	.	.	.	.	4.cc 4.e/	.	4.A\	.	.	.	.	.
.	.	.	.	8G\	-ris	.	8B\	.	.	8d\	-ris	.	.	.	.	.	.	.	.	.	.	.	.	.	.	.	.	.	8dd 8g/	.	8B 8G\	.	.	.	.	.
=27	=27	=27	=27	=27	=27	=27	=27	=27	=27	=27	=27	=27	=27	=27	=27	=27	=27	=27	=27	=27	=27	=27	=27	=27	=27	=27	=27	=27	=27	=27	=27	=27	=27	=27	=27	=27
1r	.	1ryy	.	4..C/	Ho-	.	4..c\	.	.	4..e\	Ho-	.	1ryy	.	.	1ryy	.	1ryy	.	.	1r	.	1r	.	1r	.	1r	.	4..ee 4..cc\	.	4..c 4..C\	<	1r	.	16r	.
.	.	.	.	.	.	.	.	.	.	.	.	.	.	.	.	.	.	.	.	.	.	.	.	.	.	.	.	.	.	.	.	.	.	.	16g/LL	.
.	.	.	.	.	.	.	.	.	.	.	.	.	.	.	.	.	.	.	.	.	.	.	.	.	.	.	.	.	.	.	.	.	.	.	16cc/	.
.	.	.	.	.	.	.	.	.	.	.	.	.	.	.	.	.	.	.	.	.	.	.	.	.	.	.	.	.	.	.	.	.	.	.	16ee/JJ	.
.	.	.	.	.	.	.	.	.	.	.	.	.	.	.	.	.	.	.	.	.	.	.	.	.	.	.	.	.	.	.	.	.	.	.	16gg\LL	.
.	.	.	.	.	.	.	.	.	.	.	.	.	.	.	.	.	.	.	.	.	.	.	.	.	.	.	.	.	.	.	.	.	.	.	16ccc\	.
.	.	.	.	.	.	.	.	.	.	.	.	.	.	.	.	.	.	.	.	.	.	.	.	.	.	.	.	.	.	.	.	.	.	.	16eee\	.
.	.	.	.	16E\	-sti-	.	16c\	.	.	16g\	-sti-	.	.	.	.	.	.	.	.	.	.	.	.	.	.	.	.	.	16gg 16cc\	.	16c 16E\	[ >	.	.	16ggg\JJ	.
.	.	.	.	4G\	-a	.	4B\	.	.	4d\	-a	.	.	.	.	.	.	.	.	.	.	.	.	.	.	.	.	.	4dd 4g/	.	4B 4G\	]	.	.	4ddd\	.
.	.	.	.	4G\	que	.	4B\	.	.	4d\	que	.	.	.	.	.	.	.	.	.	.	.	.	.	.	.	.	.	4dd 4g/	.	4B 4G\	.	.	.	4r	.
=28	=28	=28	=28	=28	=28	=28	=28	=28	=28	=28	=28	=28	=28	=28	=28	=28	=28	=28	=28	=28	=28	=28	=28	=28	=28	=28	=28	=28	=28	=28	=28	=28	=28	=28	=28	=28
*	*	*	*	*	*	*	*	*	*	*	*	*	*	*	*	*	*	*	*	*	*	*	*	*	*	*	*	*	*^	*	*^	*	*	*	*	*
1r	.	1ryy	.	4F#\	cae-	.	4A\	.	.	4d\	cae-	.	1ryy	.	.	1ryy	.	1ryy	.	.	1r	.	1r	.	1r	.	1r	.	(4dd/	2f#X\	.	2A/	2F#\	>	1r	.	1r	.
.	.	.	.	4F#\	-li	.	4A\	.	.	4c\	-li	.	.	.	.	.	.	.	.	.	.	.	.	.	.	.	.	.	4cc/)	.	.	.	.	]	.	.	.	.
.	.	.	.	4G\	pan-	.	4G\	.	.	4B\	pan-	.	.	.	.	.	.	.	.	.	.	.	.	.	.	.	.	.	4b/	4g\	.	4B 4G\	2ryy	.	.	.	.	.
.	.	.	.	4C/	-dis	.	4A\	.	.	(8d\L	-dis	.	.	.	.	.	.	.	.	.	.	.	.	.	.	.	.	.	(8dd/L	4c\	.	4A 4C\	.	.	.	.	.	.
.	.	.	.	.	.	.	.	.	.	8c\J)	.	.	.	.	.	.	.	.	.	.	.	.	.	.	.	.	.	.	8cc/J)	.	.	.	.	.	.	.	.	.
!!LO:PB:g=original
=29	=29	=29	=29	=29	=29	=29	=29	=29	=29	=29	=29	=29	=29	=29	=29	=29	=29	=29	=29	=29	=29	=29	=29	=29	=29	=29	=29	=29	=29	=29	=29	=29	=29	=29	=29	=29	=29	=29
!	!	!LO:TX:a:t=//	!	!	!	!	!	!	!	!	!	!	!	!	!	!	!	!	!	!	!	!	!	!	!	!	!	!	!	!	!	!	!	!	!	!	!	!
1r	.	1ryy	.	4..D\	o-	.	([8G/L	.	.	([8B\L	o-	.	1r	.	.	1r	.	1r	.	.	1r	.	1r	.	1r	.	1r	.	4..b/	4..d\	.	4..G/	4..D\	.	1r	.	1r	.
.	.	.	.	.	.	.	32G/LL]	.	.	32B\LL]	.	.	.	.	.	.	.	.	.	.	.	.	.	.	.	.	.	.	.	.	.	.	.	.	.	.	.	.
.	.	.	.	.	.	.	32A/	.	.	32c\	.	.	.	.	.	.	.	.	.	.	.	.	.	.	.	.	.	.	.	.	.	.	.	.	.	.	.	.
.	.	.	.	.	.	.	32G/	.	.	32B\	.	.	.	.	.	.	.	.	.	.	.	.	.	.	.	.	.	.	.	.	.	.	.	.	.	.	.	.
.	.	.	.	.	.	.	32F#/JJJ)	.	.	32A\JJJ	.	.	.	.	.	.	.	.	.	.	.	.	.	.	.	.	.	.	.	.	.	.	.	.	.	.	.	.
.	.	.	.	.	.	.	8.G/	.	.	8.B\)	.	.	.	.	.	.	.	.	.	.	.	.	.	.	.	.	.	.	.	.	.	.	.	.	.	.	.	.
.	.	.	.	16D\	-sti-	.	16A/	.	.	16c\	-sti-	.	.	.	.	.	.	.	.	.	.	.	.	.	.	.	.	.	16cc/	16d\	.	16A/	16D\	.	.	.	.	.
.	.	.	.	4D\	-um	.	4F#/	.	.	4A\	-um	.	.	.	.	.	.	.	.	.	.	.	.	.	.	.	.	.	4a/	4d\	.	4F#/	4D\	.	.	.	.	.
.	.	.	.	8.D\	Bel-	.	8.F#/	.	.	8.A\	Bel-	.	.	.	.	.	.	.	.	.	.	.	.	.	.	.	.	.	8.a/L	4d\	.	4F#/	4D\	.	.	.	.	.
.	.	.	.	16D\	-la	.	16F#/	.	.	16d\	-la	.	.	.	.	.	.	.	.	.	.	.	.	.	.	.	.	.	16dd/Jk	.	.	.	.	.	.	.	.	.
=30	=30	=30	=30	=30	=30	=30	=30	=30	=30	=30	=30	=30	=30	=30	=30	=30	=30	=30	=30	=30	=30	=30	=30	=30	=30	=30	=30	=30	=30	=30	=30	=30	=30	=30	=30	=30	=30	=30
*	*	*	*	*2\right	*	*	*	*	*	*	*	*	*	*	*	*	*	*	*	*	*	*	*	*	*	*	*	*	*	*	*	*	*	*	*	*	*	*
1r	.	1ryy	.	2E\	pre-	.	2G/	.	.	(4.d\	pre-	.	1ryy	.	.	1ryy	.	1ryy	.	.	1r	.	1r	.	1r	.	1r	.	(4.dd/	2.e\	.	2.G/	2.E\	.	1r	.	1r	.
.	.	.	.	.	.	.	.	.	.	16e\LL	.	.	.	.	.	.	.	.	.	.	.	.	.	.	.	.	.	.	16ee/LL	.	.	.	.	.	.	.	.	.
.	.	.	.	.	.	.	.	.	.	16d\JJ)	.	.	.	.	.	.	.	.	.	.	.	.	.	.	.	.	.	.	16dd/JJ	.	.	.	.	.	.	.	.	.
.	.	.	.	4E\	munt	.	4G/	.	.	4c#X\	-munt	.	.	.	.	.	.	.	.	.	.	.	.	.	.	.	.	.	4cc#X/)	.	.	.	.	.	.	.	.	.
.	.	.	.	4F#\	ho-	.	4A/	.	.	4d\	ho-	.	.	.	.	.	.	.	.	.	.	.	.	.	.	.	.	.	4dd/	4f#X\	.	4A/	4F#\	.	.	.	.	.
=31	=31	=31	=31	=31	=31	=31	=31	=31	=31	=31	=31	=31	=31	=31	=31	=31	=31	=31	=31	=31	=31	=31	=31	=31	=31	=31	=31	=31	=31	=31	=31	=31	=31	=31	=31	=31	=31	=31
2r	.	2ryy	.	4..G\	-sti-	.	4..B\	.	.	4..B\	-sti-	.	1ryy	.	.	1ryy	.	1ryy	.	.	2r	.	2r	.	2r	.	2r	.	4..b/	4..g\	.	4..B 4..G\	2ryy	.	1r	.	1r	.
.	.	.	.	16G\	-li-	.	16B\	.	.	16e\	-li-	.	.	.	.	.	.	.	.	.	.	.	.	.	.	.	.	.	16ee/	16g\	.	16B 16G\	.	.	.	.	.	.
!	!	!	!LO:DY:b	!	!	!	!	!	!	!	!	!	!	!	!	!	!	!	!	!	!	!	!	!	!	!	!	!	!	!	!	!	!	!	!	!	!	!
4r	p	4ryy	py	4G\	-a	.	4B\	.	.	4e\	-a	.	.	.	.	.	.	.	.	.	4r	.	4r	.	4r	.	4r	.	4ee/	4g\	.	4B 4G\	4ryy	.	.	.	.	.
8G\	.	8G\yy	.	4G\	da	.	4A\	.	.	4c#X\	da	.	.	.	.	.	.	.	.	.	8r	.	8r	.	8r	.	4G\	.	4cc#X/	4g\	.	4A/	4G\	.	.	.	.	.
8r	.	8ryy	.	.	.	.	.	.	.	.	.	.	.	.	.	.	.	.	.	.	8G/	.	8A/	.	8c#X/	.	.	.	.	.	.	.	.	.	.	.	.	.
=32	=32	=32	=32	=32	=32	=32	=32	=32	=32	=32	=32	=32	=32	=32	=32	=32	=32	=32	=32	=32	=32	=32	=32	=32	=32	=32	=32	=32	=32	=32	=32	=32	=32	=32	=32	=32	=32	=32
!	!	!	!LO:HP:b	!	!	!	!	!	!	!	!	!LO:DY:a	!	!	!	!	!	!	!	!	!	!	!	!	!	!	!	!	!	!	!	!	!	!	!	!	!	!
8F#\	<	8F#\yy	<	2.F#\	ro-	.	2.A\	.	.	2.d\	ro-	<	1ryy	.	.	1ryy	.	1ryy	.	.	8r	.	8r	.	8r	.	2.F#\	<	2.dd/	2.f#X\	<	2.A/	2.F#\	<	1r	.	1r	.
8r	.	8ryy	.	.	.	.	.	.	.	.	.	.	.	.	.	.	.	.	.	.	8F#/	.	8A/	.	8d/	.	.	.	.	.	.	.	.	.	.	.	.	.
8F#\	.	8F#\yy	.	.	.	.	.	.	.	.	.	.	.	.	.	.	.	.	.	.	8r	.	8r	.	8r	.	.	.	.	.	.	.	.	.	.	.	.	.
8r	.	8ryy	.	.	.	.	.	.	.	.	.	.	.	.	.	.	.	.	.	.	8F#/	.	8A/	.	8d/	.	.	.	.	.	.	.	.	.	.	.	.	.
8F#\	.	8F#\yy	.	.	.	.	.	.	.	.	.	.	.	.	.	.	.	.	.	.	8r	.	8r	.	8r	.	.	.	.	.	.	.	.	.	.	.	.	.
8r	.	8ryy	.	.	.	.	.	.	.	.	.	.	.	.	.	.	.	.	.	.	8F#/	.	8A/	.	8d/	.	.	.	.	.	.	.	.	.	.	.	.	.
8G\	.	8G\yy	.	4G\	-bur	.	4B\	.	.	4e\	-bur	[[	.	.	.	.	.	.	.	.	8r	.	8r	.	8r	.	4G\	.	4ee/	4g\	.	4B/	4G\	.	.	.	.	.
8r	[[	8ryy	[[	.	.	.	.	.	.	.	.	.	.	.	.	.	.	.	.	.	8G/	.	8B/	.	8e/	.	.	[	.	.	[	.	.	[	.	.	.	.
!!LO:PB:g=original
=33	=33	=33	=33	=33	=33	=33	=33	=33	=33	=33	=33	=33	=33	=33	=33	=33	=33	=33	=33	=33	=33	=33	=33	=33	=33	=33	=33	=33	=33	=33	=33	=33	=33	=33	=33	=33	=33	=33
!	!	!LO:TX:a:t=//	!	!	!	!	!	!	!	!	!	!	!	!	!	!	!	!	!	!	!	!	!	!	!	!	!	!	!	!	!	!	!	!	!	!	!	!
8A\	.	8A\yy	.	4.A\	fer	.	4.d\	.	.	4.f#\	fer	.	1r;	.	.	1r;	.	1r;	.	.	8r	.	8r	.	8r	.	2A\	.	2ff#X/	2a\	.	2d/	2A\	.	1r	.	1r	.
8r	.	8ryy	.	.	.	.	.	.	.	.	.	.	.	.	.	.	.	.	.	.	8A/	.	8d/	.	8f#/	.	.	.	.	.	.	.	.	.	.	.	.	.
8A\	.	8A\yy	.	.	.	.	.	.	.	.	.	.	.	.	.	.	.	.	.	.	8r	.	8r	.	8r	.	.	.	.	.	.	.	.	.	.	.	.	.
8r	.	8ryy	.	8A\	au-	.	8d\	.	.	8f#\	au-	.	.	.	.	.	.	.	.	.	8A/	.	8d/	.	8f#/	.	.	.	.	.	.	.	.	.	.	.	.	.
.	.	.	.	.	.	.	.	.	.	(8qf#/	.	.	.	.	.	.	.	.	.	.	.	.	.	.	.	.	.	.	(8qff#;/	.	.	.	.	.	.	.	.	.
8AA/	.	8AA/yy	.	4..AA;/	-xi-	.	4..c#X;\	.	.	4..e;\)	-xi-	.	.	.	.	.	.	.	.	.	8r	.	8r	.	8r	.	4..AA;/	.	4..ee;/)	4..a\	.	4..c#X;/	4..AA\	.	.	.	.	.
8r	.	8ryy	.	.	.	.	.	.	.	.	.	.	.	.	.	.	.	.	.	.	8A/	.	8c#X/	.	8g/	.	.	.	.	.	.	.	.	.	.	.	.	.
!LO:N:vis=16	!	!LO:N:vis=16	!	!	!	!	!	!	!	!	!	!	!	!	!	!	!	!	!	!	!	!	!	!	!	!	!	!	!	!	!	!	!	!	!	!	!	!
8AA/	.	8AA/yy	.	.	.	.	.	.	.	.	.	.	.	.	.	.	.	.	.	.	8r	.	8r	.	8r	.	.	.	.	.	.	.	.	.	.	.	.	.
!LO:N:vis=16	!	!LO:N:vis=16	!	!	!	!	!	!	!	!	!	!	!	!	!	!	!	!	!	!	!	!	!	!	!	!	!	!	!	!	!	!	!	!	!	!	!	!
8r;	.	8r;yy	.	.	.	.	.	.	.	.	.	.	.	.	.	.	.	.	.	.	16A/	.	16c#/	.	16g/	.	.	.	.	.	.	.	.	.	.	.	.	.
.	.	.	.	16D/	-li-	.	16d\	.	.	16d\	-li-	.	.	.	.	.	.	.	.	.	16r;	.	16r;	.	16r;	.	16D/	.	16dd/	16a\	.	16d/	16D\	.	.	.	.	.
=34	=34	=34	=34	=34	=34	=34	=34	=34	=34	=34	=34	=34	=34	=34	=34	=34	=34	=34	=34	=34	=34	=34	=34	=34	=34	=34	=34	=34	=34	=34	=34	=34	=34	=34	=34	=34	=34	=34
*	*	*	*	*	*	*	*	*	*	*	*	*	*	*	*	*	*	*	*	*	*	*	*	*	*	*	*	*	*	*	*	*	*	*	*^	*	*	*
8D\	.	8D\yy	.	8D/	-um.	.	8d\	.	.	8d\	-um	.	2r	.	.	2r	.	2r	.	.	8d\	.	8d/	.	8f# 8A/	.	8D/	.	8dd/	8dd\	.	8d 8D\	2ryy	.	2r	2ryy	.	8dd'\L	.
8r	.	8ryy	.	8r	.	.	8r	.	.	8r	.	.	.	.	.	.	.	.	.	.	8r	.	8r	.	8r	.	8r	.	8r	8ryy	.	8r	.	.	.	.	.	(16cc#X\L	.
.	.	.	.	.	.	.	.	.	.	.	.	.	.	.	.	.	.	.	.	.	.	.	.	.	.	.	.	.	.	.	.	.	.	.	.	.	.	16dd\JJ)	.
4r	.	4ryy	.	4r	.	.	4r	.	.	4r	.	.	.	.	.	.	.	.	.	.	4r	f	4r	.	4r	f	4r	.	4r	4ryy	.	4r	.	.	.	.	.	(16ee#X\LL	.
.	.	.	.	.	.	.	.	.	.	.	.	.	.	.	.	.	.	.	.	.	.	.	.	.	.	.	.	.	.	.	.	.	.	.	.	.	.	16ff#\)	.
.	.	.	.	.	.	.	.	.	.	.	.	.	.	.	.	.	.	.	.	.	.	.	.	.	.	.	.	.	.	.	.	.	.	.	.	.	.	(16gg#X\	.
.	.	.	.	.	.	.	.	.	.	.	.	.	.	.	.	.	.	.	.	.	.	.	.	.	.	.	.	.	.	.	.	.	.	.	.	.	.	16aa\JJ)	.
!	!LO:DY:rj	!	!LO:DY:b:rj	!	!	!	!	!	!	!	!	!	!	!	!	!	!	!	!	!	!	!	!	!	!	!	!	!LO:DY:rj	!	!	!	!	!	!LO:DY:rj	!	!	!	!	!
4D\	f	4D\yy	fy	4r	.	.	4r	.	.	4r	.	.	4r	.	.	4r	.	4r	.	.	4f# 4A 4D/	.	4dd 4f# 4A/	.	4ff# 4a 4d\	.	4D/	f	4dd/	4dd\	.	4A/	4F#\	f	4r	4ryy	.	4ddd\	.
!	!	!	!	!	!	!	!	!	!	!	!	!	!	!	!	!	!	!	!	!	!	!	!	!	!	!	!	!LO:DY:rj	!	!	!	!	!	!LO:DY:rj	!	!	!LO:DY:rj	!	!
4r	.	4ryy	.	4G\	U-	.	4B\	.	.	4d\	U-	.	4g/	.	.	4b\	.	4dd\	U-	.	4r	.	4r	.	4r	.	4GG/	mf	4dd 4g/	4ryy	.	4B/	4G\	mf	4dd/	4b\	mf	4r	.
*	*	*	*	*	*	*	*	*	*	*	*	*	*	*	*	*	*	*	*	*	*	*	*	*	*	*	*	*	*	*	*	*v	*v	*	*	*	*	*	*
=35	=35	=35	=35	=35	=35	=35	=35	=35	=35	=35	=35	=35	=35	=35	=35	=35	=35	=35	=35	=35	=35	=35	=35	=35	=35	=35	=35	=35	=35	=35	=35	=35	=35	=35	=35	=35	=35	=35
1r	.	1ryy	.	4C/	-ni	.	4c\	.	.	4e\	-ni	.	4g/	.	.	4cc\	.	4ee\	-ni	.	1r	.	1r	.	1r	.	4C/	.	4ee/	4cc\	.	4c 4C\	.	4ee/	4cc\	.	1r	.
.	.	.	.	4G\	tri-	.	4B\	.	.	4d\	tri-	.	4g/	.	.	4b\	.	4dd\	tri-	.	.	.	.	.	.	.	4GG/	.	4dd/	4g\	.	4B 4GG\	.	4dd/	4b\	.	.	.
.	.	.	.	4.A\	-no-	.	4.A\	.	.	4.c\	-no-	.	4.e/	.	.	4.a\	.	4.cc\	-no-	.	.	.	.	.	.	.	4.AA/	.	4.cc 4.e/	2ryy	.	4.A 4.AA\	.	4.cc/	4.a\	.	.	.
.	.	.	.	8G\	-que	.	8B\	.	.	8d\	-que	.	8g/	.	.	8b\	.	8dd\	-que	.	.	.	.	.	.	.	8GG/	.	8dd 8g/	.	.	8B 8GG\	.	8dd/	8b\	.	.	.
=36	=36	=36	=36	=36	=36	=36	=36	=36	=36	=36	=36	=36	=36	=36	=36	=36	=36	=36	=36	=36	=36	=36	=36	=36	=36	=36	=36	=36	=36	=36	=36	=36	=36	=36	=36	=36	=36	=36
*	*	*	*	*	*	*	*	*	*	*	*	*	*	*	*	*	*	*	*	*	*	*	*	*	*	*	*	*	*	*	*	*^	*	*	*	*	*	*
2r	.	2ryy	.	4..C/	Do-	.	4..c\	.	.	4..e\	Do-	.	4..g/	.	.	4..cc\	.	4..ee\	Do-	.	2r	.	2r	.	2r	.	4..C/	.	4..ee/	4..cc\	<	4..c 4..C\	2ryy	.	4..ee 4..cc\	2ryy	<	16r	.
.	.	.	.	.	.	.	.	.	.	.	.	.	.	.	.	.	.	.	.	.	.	.	.	.	.	.	.	.	.	.	.	.	.	.	.	.	.	16g\LL	.
.	.	.	.	.	.	.	.	.	.	.	.	.	.	.	.	.	.	.	.	.	.	.	.	.	.	.	.	.	.	.	.	.	.	.	.	.	.	16cc\	.
.	.	.	.	.	.	.	.	.	.	.	.	.	.	.	.	.	.	.	.	.	.	.	.	.	.	.	.	.	.	.	.	.	.	.	.	.	.	16ee\JJ	.
.	.	.	.	.	.	.	.	.	.	.	.	.	.	.	.	.	.	.	.	.	.	.	.	.	.	.	.	.	.	.	.	.	.	.	.	.	.	16gg\LL	.
.	.	.	.	.	.	.	.	.	.	.	.	.	.	.	.	.	.	.	.	.	.	.	.	.	.	.	.	.	.	.	.	.	.	.	.	.	.	16ccc\	.
.	.	.	.	.	.	.	.	.	.	.	.	.	.	.	.	.	.	.	.	.	.	.	.	.	.	.	.	.	.	.	.	.	.	.	.	.	.	16eee\	.
.	.	.	.	16E\	-mi-	.	16c\	.	.	16g\	-mi-	.	16g/	.	.	16cc\	.	16gg\	-mi-	.	.	.	.	.	.	.	16E\	.	16gg/	16cc\	[ >	16c 16E\	.	.	16gg 16cc\	.	[ >	16ggg\JJ	.
4r	.	4ryy	.	4G\	-no	.	4B\	.	.	4d\	-no	.	4g/	.	.	4b\	.	4dd\	-no	.	4r	.	4r	.	4r	.	4G\	.	4dd 4g/	4ryy	]	4B 4G\	4ryy	.	4dd/	4b\	]	4ddd\	.
!	!	!	!LO:DY:b	!	!	!	!	!	!	!	!	!	!	!	!	!	!	!	!	!	!	!	!	!	!	!	!	!	!	!	!	!	!	!	!	!	!	!	!
8G\	sf	8G\yy	sfy	4G\	Sit	.	4A\	.	.	4c#X\	Sit	.	4g/	.	.	4a/	.	4cc#X\	Sit	.	8r	.	8r	.	8r	.	4r	.	4cc#X/	4g^\	.	4A/	4G^\	.	4cc#X^/	4a\	.	4r	.
8r	.	8ryy	.	.	.	.	.	.	.	.	.	.	.	.	.	.	.	.	.	.	8g\	.	8a/	sf	8cc#X\	sf	.	.	.	.	.	.	.	.	.	.	.	.	.
*	*	*	*	*	*	*	*	*	*	*	*	*	*	*	*	*	*	*	*	*	*	*	*	*	*	*	*	*	*v	*v	*	*	*	*	*	*	*	*	*
!!LO:PB:g=original
=37	=37	=37	=37	=37	=37	=37	=37	=37	=37	=37	=37	=37	=37	=37	=37	=37	=37	=37	=37	=37	=37	=37	=37	=37	=37	=37	=37	=37	=37	=37	=37	=37	=37	=37	=37	=37	=37	=37
*	*	*	*	*	*	*	*2\right	*	*	*2\right	*	*	*	*	*	*	*	*2\right	*	*	*	*	*	*	*	*	*	*	*	*	*	*	*	*	*	*	*	*
!	!	!LO:TX:t=//	!	!	!	!	!	!	!	!	!	!	!	!	!	!	!	!	!	!	!	!	!	!	!	!	!	!	!	!	!	!	!	!	!	!	!	!
4F#\	.	4F#\yy	.	2F#\	sem-	.	2A\	.	.	2d\	sem-	.	2f#/	.	.	2a/	.	2dd\	sem-	.	8r	.	8r	.	8r	.	1r	.	2dd 2f#X/	.	2A/	2F#\	.	2dd/	2a\	.	1r	.
.	.	.	.	.	.	.	.	.	.	.	.	.	.	.	.	.	.	.	.	.	8f#\L	.	8a/L	.	8dd\L	.	.	.	.	.	.	.	.	.	.	.	.	.
4r	.	4ryy	.	.	.	.	.	.	.	.	.	.	.	.	.	.	.	.	.	.	8f#\	.	8a/	.	8dd\	.	.	.	.	.	.	.	.	.	.	.	.	.
.	.	.	.	.	.	.	.	.	.	.	.	.	.	.	.	.	.	.	.	.	8f#\J	.	8a/J	.	8dd\J	.	.	.	.	.	.	.	.	.	.	.	.	.
4G\	.	4G\yy	.	2G\	-pi-	.	2B\	.	.	2e\	-pi-	.	2g/	.	.	2b/	.	2ee\	-pi-	.	8r	.	8r	.	8r	.	.	.	2ee 2g/	.	2B/	2G\	.	2ee/	2b\	.	.	.
.	.	.	.	.	.	.	.	.	.	.	.	.	.	.	.	.	.	.	.	.	8g\L	.	8b/L	.	8ee\L	.	.	.	.	.	.	.	.	.	.	.	.	.
4r	.	4ryy	.	.	.	.	.	.	.	.	.	.	.	.	.	.	.	.	.	.	8g\	.	8b/	.	8ee\	.	.	.	.	.	.	.	.	.	.	.	.	.
.	.	.	.	.	.	.	.	.	.	.	.	.	.	.	.	.	.	.	.	.	8g\J	.	8b/J	.	8ee\J	.	.	.	.	.	.	.	.	.	.	.	.	.
=38	=38	=38	=38	=38	=38	=38	=38	=38	=38	=38	=38	=38	=38	=38	=38	=38	=38	=38	=38	=38	=38	=38	=38	=38	=38	=38	=38	=38	=38	=38	=38	=38	=38	=38	=38	=38	=38	=38
*	*	*	*	*	*	*	*	*	*	*	*	*	*	*	*	*	*	*	*	*	*	*	*	*	*	*	*	*	*^	*	*	*	*	*	*	*	*	*
*	*	*	*	*	*	*	*	*	*	*	*	*	*	*	*	*2\right	*	*	*	*	*	*	*	*	*	*	*	*	*	*	*	*	*	*	*	*	*	*	*
!	!	!	!	!	!	!	!	!	!LO:DY:a	!	!	!LO:DY:a	!	!	!	!	!	!	!	!	!	!	!	!	!	!	!	!	!	!	!	!	!	!	!	!	!	!	!
4A\	.	4A\yy	.	2A\	-ter-	<	2d\	.	<	2f#\	-ter-	<	2a/	.	.	2dd\	.	2ff#\	-ter-	.	8r	.	8r	.	8r	.	1r	.	2ff#X/	2a\	.	2d/	2A\	.	2ff#/	2dd\	.	16r	.
.	.	.	.	.	.	.	.	.	.	.	.	.	.	.	.	.	.	.	.	.	.	.	.	.	.	.	.	.	.	.	.	.	.	.	.	.	.	(16aaa\LL	.
.	.	.	.	.	.	.	.	.	.	.	.	.	.	.	.	.	.	.	.	.	8a\L	.	8dd\L	.	8ff#\L	<	.	.	.	.	.	.	.	.	.	.	<	16fff#\)	.
.	.	.	.	.	.	.	.	.	.	.	.	.	.	.	.	.	.	.	.	.	.	.	.	.	.	.	.	.	.	.	.	.	.	.	.	.	.	16ddd'\JJ	.
!	!	!	!LO:HP:b	!	!	!	!	!	!	!	!	!	!	!	!	!	!	!	!	!LO:HP:b	!	!	!	!	!	!	!	!	!	!	!	!	!	!	!	!	!	!	!
4r	<	4ryy	<	.	.	.	.	.	.	.	.	.	.	.	.	.	.	.	.	<	8a\	.	8dd\	.	8ff#\	.	.	.	.	.	.	.	.	.	.	.	.	(16aa\LL	.
.	.	.	.	.	.	.	.	.	.	.	.	.	.	.	.	.	.	.	.	.	.	.	.	.	.	.	.	.	.	.	.	.	.	.	.	.	.	16fff#\)	.
.	.	.	.	.	.	.	.	.	.	.	.	.	.	.	.	.	.	.	.	.	8a\J	.	8dd\J	.	8ff#\J	.	.	.	.	.	.	.	.	.	.	.	.	16ddd'\	.
.	.	.	.	.	.	.	.	.	.	.	.	.	.	.	.	.	.	.	.	.	.	.	.	.	.	.	.	.	.	.	.	.	.	.	.	.	.	16aa'\JJ	.
4A\	.	4A\yy	.	2A\	-na	[	(2d\	.	[	2f#\	-na	[	2a/	.	.	(2dd\	.	2ff#\	-na	[[	8r	.	8r	.	8r	.	.	.	2ff#/	2dd\	.	2A/	2A\	.	2ff#/	[>2dd\	.	(16ff#\LL	.
.	.	.	.	.	.	.	.	.	.	.	.	.	.	.	.	.	.	.	.	.	.	.	.	.	.	.	.	.	.	.	.	.	.	.	.	.	.	16ddd\)	.
.	.	.	.	.	.	.	.	.	.	.	.	.	.	.	.	.	.	.	.	.	8a\L	.	8dd\L	.	8ff#\L	.	.	.	.	.	.	.	.	.	.	.	.	16aa'\	.
.	.	.	.	.	.	.	.	.	.	.	.	.	.	.	.	.	.	.	.	.	.	.	.	.	.	.	.	.	.	.	.	.	.	.	.	.	.	16ff#'\JJ	.
4r	[	4ryy	[	.	.	.	.	.	.	.	.	.	.	.	.	.	.	.	.	.	8a\	.	8dd\	.	8ff#\	.	.	.	.	.	.	.	.	.	.	.	[	(16dd\LL	.
.	.	.	.	.	.	.	.	.	.	.	.	.	.	.	.	.	.	.	.	.	.	.	.	.	.	.	.	.	.	.	.	.	.	.	.	.	.	16aa\)	.
.	.	.	.	.	.	.	.	.	.	.	.	.	.	.	.	.	.	.	.	.	8a\J	.	8dd\J	.	8ff#\J	[[	.	.	.	.	.	.	.	.	.	.	.	16ff#'\	.
!	!	!	!	!	!	!LO:DY:b	!	!	!LO:DY:b	!	!	!LO:DY:b	!	!	!	!	!	!	!	!	!	!	!	!	!	!	!	!LO:DY:a	!	!	!	!	!	!	!	!	!	!	!
.	.	.	.	.	.	f	.	.	f	.	.	f	.	.	.	.	.	.	.	.	.	f	.	f	.	f	.	f	.	.	.	.	.	.	.	.	.	16dd'\JJ	.
*	*	*	*	*	*	*	*	*	*	*	*	*	*	*	*	*	*	*	*	*	*	*	*	*	*	*	*	*	*	*	*	*v	*v	*	*	*	*	*	*
=39	=39	=39	=39	=39	=39	=39	=39	=39	=39	=39	=39	=39	=39	=39	=39	=39	=39	=39	=39	=39	=39	=39	=39	=39	=39	=39	=39	=39	=39	=39	=39	=39	=39	=39	=39	=39	=39	=39
!	!LO:DY:rj	!	!LO:DY:b:rj	!	!	!	!	!	!	!	!	!	!	!	!	!	!	!	!	!LO:DY:b:rj	!	!	!	!	!	!	!	!	!	!	!	!	!	!	!	!	!	!LO:DY:rj
4A\	f	4A\yy	fy	2.A\	glo-	.	4d\	.	.	2.e\	glo-	.	2.a/	.	.	4dd\	.	2.ee\	glo-	f	8r	.	8r	.	8r	.	2.A\	.	2.ee/	4dd\	.	2.A 2.AA\	.	2.ee/	4dd\]	f	8ee'\L	f
.	.	.	.	.	.	.	.	.	.	.	.	.	.	.	.	.	.	.	.	.	8a\L	.	(8dd\L	.	8ee\L	.	.	.	.	.	.	.	.	.	.	.	(8ddd\	.
4r	.	4ryy	.	.	.	.	8c#X\L	.	.	.	.	.	.	.	.	8cc#X\L	.	.	.	.	8a\	.	8cc#X\	.	8ee\	.	.	.	.	8cc#X\L	.	.	.	.	8cc#X\L	.	8ccc#X\	.
.	.	.	.	.	.	.	8B\J)	.	.	.	.	.	.	.	.	8b\J	.	.	.	.	8a\J	.	8b\J)	.	8ee\J	.	.	.	.	8b\J	.	.	.	.	8b\J	.	8bb\J)	.
8A\	.	8A\yy	.	.	.	.	4c#\	.	.	.	.	.	.	.	.	4cc#\)	.	.	.	.	8r	.	8r	.	8r	.	.	.	.	4cc#\	.	.	.	.	4cc#\	.	4ccc#\	.
8r	.	8ryy	.	.	.	.	.	.	.	.	.	.	.	.	.	.	.	.	.	.	8a\	.	8cc#\	.	8ee\	.	.	.	.	.	.	.	.	.	.	.	.	.
8AA/	.	8AA/yy	.	4AA/	-ri-	.	4c#\	.	.	4e\	-ri-	.	4a/	.	.	4cc#\	.	4aa\	-ri-	.	8r	.	8r	.	8r	.	4AA/	.	4ee/	4cc#\	.	4A 4AA\	.	4ee/	4cc#\	.	4aaa\	.
8r	.	8ryy	.	.	.	.	.	.	.	.	.	.	.	.	.	.	.	.	.	.	8a\	.	8cc#\	.	8ee\	.	.	.	.	.	.	.	.	.	.	.	.	.
=40	=40	=40	=40	=40	=40	=40	=40	=40	=40	=40	=40	=40	=40	=40	=40	=40	=40	=40	=40	=40	=40	=40	=40	=40	=40	=40	=40	=40	=40	=40	=40	=40	=40	=40	=40	=40	=40	=40
*	*	*	*	*	*	*	*	*	*	*	*	*	*	*	*	*	*	*	*	*	*	*	*	*	*	*	*	*	*	*	*	*^	*	*	*	*	*	*
!	!	!	!	!	!	!	!	!	!	!	!	!	!	!	!	!	!	!	!	!	!	!	!LO:TX:t=P:problem=mixed beam	!	!	!	!	!	!	!	!	!	!	!	!	!	!	!	!
8D\	.	8D\	.	8D\	-a.	.	8d\	.	.	8d\	-a.	.	8d/	.	.	8dd\	.	8dd\	-a.	.	8d'\L	.	8dd\L	.	8dd'\L	.	8D\	.	8dd/	8dd\	.	8dL 8D'\	2ryy	.	8dd/	8dd\	.	8ddd'\L	.
8r	.	8r	.	8r	.	.	8r	.	.	8r	.	.	8r	.	.	8r	.	8r	.	.	(16c#X\L	.	(16c#X/L	.	(16cc#X\L	.	8r	.	8r	8ryy	.	(16c#X\L	.	.	8r	8ryy	.	(16ccc#X\L	.
.	.	.	.	.	.	.	.	.	.	.	.	.	.	.	.	.	.	.	.	.	16d\JJ)	.	16d/JJ)	.	16dd\JJ)	.	.	.	.	.	.	16d\JJ)	.	.	.	.	.	16ddd\JJ)	.
4r	.	4r	.	4r	.	.	4r	.	.	4r	.	.	4r	.	.	4r	.	4r	.	.	(16G#X/LL	.	(16e#X/LL	.	(16ee#X\LL	.	4r	.	4r	4ryy	.	(16G#X\LL	.	.	4r	4ryy	.	(16eee#X\LL	.
.	.	.	.	.	.	.	.	.	.	.	.	.	.	.	.	.	.	.	.	.	16A/)	.	16f#/)	.	16ff#\)	.	.	.	.	.	.	16A\)	.	.	.	.	.	16fff#\)	.
.	.	.	.	.	.	.	.	.	.	.	.	.	.	.	.	.	.	.	.	.	(16E#X/	.	(16g#X/	.	(16gg#X\	.	.	.	.	.	.	(16E#X\	.	.	.	.	.	(16ggg#X\	.
.	.	.	.	.	.	.	.	.	.	.	.	.	.	.	.	.	.	.	.	.	16F#/JJ)	.	16a/JJ)	.	16aa\JJ)	.	.	.	.	.	.	16F#\JJ)	.	.	.	.	.	16aaa\JJ)	.
2r	.	4r	.	2r	.	.	2r	.	.	4r	.	.	2r	.	.	2r	.	2r	.	.	4D/	.	4dd\	.	4ddd\	.	4D\	.	4dd/	4dd\	.	4D/	4D\	.	4ff#/	4dd\	.	4ddd\	.
.	.	4d\	.	.	.	.	.	.	.	4d\	qui	.	.	.	.	.	.	.	.	.	4r	.	4r	.	4r	.	4r	.	4r	4ryy	.	4d/	4r	.	4r	4ryy	.	4r	.
*	*	*	*	*	*	*	*	*	*	*	*	*	*	*	*	*	*	*	*	*	*	*	*	*	*	*	*	*	*v	*v	*	*	*	*	*v	*v	*	*	*
!!LO:PB:g=original
=41	=41	=41	=41	=41	=41	=41	=41	=41	=41	=41	=41	=41	=41	=41	=41	=41	=41	=41	=41	=41	=41	=41	=41	=41	=41	=41	=41	=41	=41	=41	=41	=41	=41	=41	=41	=41	=41
*	*	*2\right	*	*	*	*	*	*	*	*	*	*	*	*	*	*	*	*	*	*	*	*	*	*	*	*	*	*	*	*	*	*	*	*	*	*	*
!	!	!	!	!	!	!	!	!	!	!	!	!	!	!	!	!	!	!	!	!	!	!	!	!	!	!	!	!	!	!	!LO:TX:t=P:problem=diminuendolike accent	!	!	!	!	!	!
2r	.	(2e-X^<\	.	2r	.	.	1r	.	.	2e-X^\	vi-	.	1r	.	.	1r	.	1r	.	.	1r	.	1r	.	1r	.	1r	.	1r	.	(2e-X^/	2r	.	1r	.	1r	.
4r	.	4d\)	.	4r	.	.	.	.	.	4d\	-tam	.	.	.	.	.	.	.	.	.	.	.	.	.	.	.	.	.	.	.	4d/)	4r	.	.	.	.	.
(4D\	.	(4d\	.	(4D\	Si-	.	.	.	.	(4d\	Si-	.	.	.	.	.	.	.	.	.	.	.	.	.	.	.	.	.	.	.	4d/	4D\	.	.	.	.	.
=42	=42	=42	=42	=42	=42	=42	=42	=42	=42	=42	=42	=42	=42	=42	=42	=42	=42	=42	=42	=42	=42	=42	=42	=42	=42	=42	=42	=42	=42	=42	=42	=42	=42	=42	=42	=42	=42
*	*	*	*	*	*	*	*	*	*	*	*	*	*	*	*	*	*	*	*	*	*	*	*	*	*	*	*	*	*^	*	*	*	*	*	*	*	*
*2\right	*	*	*	*	*	*	*	*	*	*	*	*	*	*	*	*	*	*	*	*	*	*	*	*	*	*	*	*	*	*	*	*	*	*	*	*	*	*
!	!	!	!	!	!	!	!	!	!	!	!	!	!	!	!	!	!	!	!	!	!	!	!	!	!	!	!	!	!	!	!	!LO:TX:t=P:problem=diminuendolike accent	!LO:TX:b:t=P:problem=diminuendolike accent	!	!	!	!	!
2E-X^<\)	.	2c^<\)	.	2E-X\)	.	.	2r	.	.	2c\)	.	.	1r	.	.	1r	.	1r	.	.	2r	.	1r	.	1r	.	1r	.	1rg	2r	.	(2c^/	(>2E-X^\	.	1r	.	1r	.
4D\	.	4B-X\	.	4D\	-ne	.	4r	.	.	4B-X\	-ne	.	.	.	.	.	.	.	.	.	4r	.	.	.	.	.	.	.	.	4r	.	4B-X/)	4D\)	.	.	.	.	.
4D\	.	4B-\	.	(4D\	ter-	.	(4G/	ter-	.	(4B-\	ter-	.	.	.	.	.	.	.	.	.	(4G/	.	.	.	.	.	.	.	.	4g\	.	4B-/	4D\	.	.	.	.	.
=43	=43	=43	=43	=43	=43	=43	=43	=43	=43	=43	=43	=43	=43	=43	=43	=43	=43	=43	=43	=43	=43	=43	=43	=43	=43	=43	=43	=43	=43	=43	=43	=43	=43	=43	=43	=43	=43	=43
8.C/L	.	8.A\L	.	8.C/)	.	.	8.F#/)	.	.	8.A\)	.	.	1r	.	.	1r	.	1r	.	.	8.F#/L)	.	1r	.	1r	.	1r	.	1rg	8.f#X\L	.	8.A/L	8.C\L	.	1r	.	1r	.
16C/Jk	.	16A\Jk	.	16C/	-mi-	.	16F#/	-mi-	.	16A\	-mi-	.	.	.	.	.	.	.	.	.	16F#/Jk	.	.	.	.	.	.	.	.	16f#\Jk	.	16A/Jk	16C\Jk	.	.	.	.	.
4C/	.	4A\	.	4C/	-no	.	4F#/	-no	.	4A\	-no	.	.	.	.	.	.	.	.	.	4F#/	.	.	.	.	.	.	.	.	4f#\	.	4A/	4C\	.	.	.	.	.
(<4BB-X/	.	4G\	.	(>4BB-X/	no-	.	2G/	no-	.	(4G\	no-	.	.	.	.	.	.	.	.	.	2G/	.	.	.	.	.	.	.	.	2g\	.	(4G/	4BB-X\	.	.	.	.	.
4GG/	.	4B-X\	.	4GG/)	.	.	.	.	.	4B-X\)	.	.	.	.	.	.	.	.	.	.	.	.	.	.	.	.	.	.	.	.	.	4B-X/)	4GG\	.	.	.	.	.
*	*	*	*	*	*	*	*	*	*	*	*	*	*	*	*	*	*	*	*	*	*	*	*	*	*	*	*	*	*	*	*	*v	*v	*	*	*	*	*
=44	=44	=44	=44	=44	=44	=44	=44	=44	=44	=44	=44	=44	=44	=44	=44	=44	=44	=44	=44	=44	=44	=44	=44	=44	=44	=44	=44	=44	=44	=44	=44	=44	=44	=44	=44	=44	=44
2.D\)	.	2.d\	.	2.D\	bis	.	2.F#/	-bis	.	2.d\	-bis	.	2r	.	.	2r	.	2r	.	.	2.F#/	.	2r	.	2r	.	2r	.	2r	2.f#X\	.	2.d 2.D\	.	2r	.	16r	.
.	.	.	.	.	.	.	.	.	.	.	.	.	.	.	.	.	.	.	.	.	.	.	.	.	.	.	.	.	.	.	.	.	.	.	.	16fff#\LL	.
.	.	.	.	.	.	.	.	.	.	.	.	.	.	.	.	.	.	.	.	.	.	.	.	.	.	.	.	.	.	.	.	.	.	.	.	16ddd\	.
.	.	.	.	.	.	.	.	.	.	.	.	.	.	.	.	.	.	.	.	.	.	.	.	.	.	.	.	.	.	.	.	.	.	.	.	16aa\JJ	.
.	.	.	.	.	.	.	.	.	.	.	.	.	.	.	.	.	.	.	.	.	.	.	.	.	.	.	.	.	.	.	.	.	.	.	.	16ff#\LL	.
.	.	.	.	.	.	.	.	.	.	.	.	.	.	.	.	.	.	.	.	.	.	.	.	.	.	.	.	.	.	.	.	.	.	.	.	16dd\	.
.	.	.	.	.	.	.	.	.	.	.	.	.	.	.	.	.	.	.	.	.	.	.	.	.	.	.	.	.	.	.	.	.	.	.	.	16a\	.
.	.	.	.	.	.	.	.	.	.	.	.	.	.	.	.	.	.	.	.	.	.	.	.	.	.	.	.	.	.	.	.	.	.	.	.	16f#\JJ	.
.	.	.	.	.	.	.	.	.	.	.	.	.	4r	.	.	4r	.	4r	.	.	.	.	4r	.	4r	.	4r	.	4r	.	.	.	.	4r	.	4d/	.
!	!	!	!LO:DY:b	!LO:TX:b:t=P:problem=brak początku łuku	!	!	!LO:TX:b:t=P:problem=brak początku łuku	!	!	!	!	!	!	!	!	!	!	!	!	!	!	!	!	!	!	!	!	!	!	!	!	!	!	!	!LO:DY:rj	!	!
8C/	sf	8C/	sf	(4C/	do-	.	(4F#/	.	.	[4d\	do-	.	[4d/	do	.	[4f#/	.	[4dd\	do-	.	8r	.	8r	.	8r	.	4C/	.	4dd/	4f#\	.	4c 4C\	sf	4dd 4f#/	sf	4r	.
!	!	!	!	!	!	!	!	!	!	!	!	!	!	!	!	!	!	!	!	!	!	!	!	!	!	!LO:DY:rj	!	!	!	!	!	!	!	!	!	!	!
8r	.	8r	.	.	.	.	.	.	.	.	.	.	.	.	.	.	.	.	.	.	8d\	.	8f#/	sf	8dd\	sf	.	.	.	.	.	.	.	.	.	.	.
!!LO:PB:g=original
=45	=45	=45	=45	=45	=45	=45	=45	=45	=45	=45	=45	=45	=45	=45	=45	=45	=45	=45	=45	=45	=45	=45	=45	=45	=45	=45	=45	=45	=45	=45	=45	=45	=45	=45	=45	=45	=45
*	*	*	*	*	*	*	*	*	*	*	*	*	*	*	*	*	*	*	*	*	*	*	*	*	*	*	*	*	*	*	*	*	*	*^	*	*	*
!	!LO:DY:rj	!LO:TX:t=//	!LO:DY:b:rj	!	!	!	!	!	!	!	!	!	!	!	!	!	!	!	!	!	!	!	!	!	!	!	!	!	!	!	!LO:DY:rj	!	!	!	!	!LO:DY:rj	!	!
4BB/	f	4BB/yy	fy	2BB/)	.	.	2G/)	.	.	2d\]	.	.	2d/]	.	.	2f#/]	.	2dd\]	.	.	8r	.	8r	.	8r	f	2.BB/	.	2.dd 2.f#/	2ryy	f	2.B 2.BB\	.	2dd/	2.g\	f	1r	.
.	.	.	.	.	.	.	.	.	.	.	.	.	.	.	.	.	.	.	.	.	8d\L	.	8g/L	.	8dd\L	.	.	.	.	.	.	.	.	.	.	.	.	.
4r	.	4ryy	.	.	.	.	.	.	.	.	.	.	.	.	.	.	.	.	.	.	8d\	.	8g/	.	8dd\	.	.	.	.	.	.	.	.	.	.	.	.	.
.	.	.	.	.	.	.	.	.	.	.	.	.	.	.	.	.	.	.	.	.	8d\J	.	8g/J	.	8dd\J	.	.	.	.	.	.	.	.	.	.	.	.	.
8BB/	.	8BB/yy	.	4BB/	-net	.	4G/	.	.	4g\	-net	.	4d/	.	.	4g/	.	4gg\	-net	.	8r	.	8r	.	8r	.	.	.	.	4ryy	.	.	.	4gg/	.	.	.	.
8r	.	8ryy	.	.	.	.	.	.	.	.	.	.	.	.	.	.	.	.	.	.	8g\	.	8dd\	.	8gg\	.	.	.	.	.	.	.	.	.	.	.	.	.
8C/	.	8C/yy	.	4C/	in	.	4c\	.	.	4e\	in	.	4g/	.	.	4cc\	.	4ee\	in	.	8r	.	8r	.	8r	.	4C/	.	4ee/	4cc\	.	4c 4C\	.	4ee/	4cc\	.	.	.
8r	.	8ryy	.	.	.	.	.	.	.	.	.	.	.	.	.	.	.	.	.	.	8g\	.	8cc\	.	8ee\	.	.	.	.	.	.	.	.	.	.	.	.	.
=46	=46	=46	=46	=46	=46	=46	=46	=46	=46	=46	=46	=46	=46	=46	=46	=46	=46	=46	=46	=46	=46	=46	=46	=46	=46	=46	=46	=46	=46	=46	=46	=46	=46	=46	=46	=46	=46	=46
4D\	.	4D\yy	.	2.D\	pa-	.	(<4F#/	.	.	(4A\	pa-	.	2.d/	.	.	(4f#/	.	(4a\	pa-	.	8r	.	8r	.	8r	.	2.D\	.	2.dd/	2.dd\	.	(4A 4F#\	.	(>4a 4f#/	2ryy	.	1r	.
.	.	.	.	.	.	.	.	.	.	.	.	.	.	.	.	.	.	.	.	.	8d\L	.	(8f#/L	.	(8a/L	.	.	.	.	.	.	.	.	.	.	.	.	.
4r	.	4ryy	.	.	.	.	8G/L	.	.	8B\L	.	.	.	.	.	8g/L	.	8b\L	.	.	8d\	.	8g/	.	8b/	.	.	.	.	.	.	8BL 8G\	.	8bL 8g/	.	.	.	.
.	.	.	.	.	.	.	8A/J	.	.	8c\J	.	.	.	.	.	8a/J	.	8cc\J	.	.	8d\J	.	8a/J)	.	8cc/J)	.	.	.	.	.	.	8cJ 8A\	.	8ccJ 8a/	.	.	.	.
8D\	.	8D\yy	.	.	.	.	4B\)	.	.	4d\)	.	.	.	.	.	4b/)	.	4dd\)	.	.	8r	.	8r	.	8r	.	.	.	.	.	.	4d 4B\)	.	4dd/)	4b\	.	.	.
8r	.	8ryy	.	.	.	.	.	.	.	.	.	.	.	.	.	.	.	.	.	.	8d\	.	8b/	.	8dd\	.	.	.	.	.	.	.	.	.	.	.	.	.
8D#X\	.	8D#X\yy	.	4D#X\	-tri-	.	4A 4F#/	.	.	4c\	-tri-	.	4f#/	.	.	4a/	.	4cc\	-tri-	.	8r	.	8r	.	8r	.	4D#X\	.	4dd#X/	4dd#\	.	4c 4F#\	.	4cc/	4a\	.	.	.
8r	.	8ryy	.	.	.	.	.	.	.	.	.	.	.	.	.	.	.	.	.	.	8d#X\	.	8a 8f#/	.	8cc\	.	.	.	.	.	.	.	.	.	.	.	.	.
=47	=47	=47	=47	=47	=47	=47	=47	=47	=47	=47	=47	=47	=47	=47	=47	=47	=47	=47	=47	=47	=47	=47	=47	=47	=47	=47	=47	=47	=47	=47	=47	=47	=47	=47	=47	=47	=47	=47
4E\	.	4E\yy	.	2E\	-a	.	2G/	.	.	2B\	-a	.	2g/	.	.	2g/	.	2b\	-a.	.	8r	.	8r	.	8r	.	2E\	.	2ee/	2ee\	.	2B 2G\	.	2b/	2g\	.	1r	.
.	.	.	.	.	.	.	.	.	.	.	.	.	.	.	.	.	.	.	.	.	8e\L	.	8g/L	.	8b\L	.	.	.	.	.	.	.	.	.	.	.	.	.
4r	.	4ryy	.	.	.	.	.	.	.	.	.	.	.	.	.	.	.	.	.	.	8e\	.	8g/	.	8b\	.	.	.	.	.	.	.	.	.	.	.	.	.
.	.	.	.	.	.	.	.	.	.	.	.	.	.	.	.	.	.	.	.	.	8e\J	.	8g/J	.	8b\J	.	.	.	.	.	.	.	.	.	.	.	.	.
4C/	.	4C/yy	.	2C/	in	.	2G/	.	.	2e\	in	.	2g/	.	.	2cc\	.	2ee\	in	.	8r	.	8r	.	8r	.	2C/	.	2ee/	2cc\	.	2e 2c\	.	2ee/	2g\	.	.	.
.	.	.	.	.	.	.	.	.	.	.	.	.	.	.	.	.	.	.	.	.	8g\L	.	8cc\L	.	8ee\L	.	.	.	.	.	.	.	.	.	.	.	.	.
4r	.	4ryy	.	.	.	.	.	.	.	.	.	.	.	.	.	.	.	.	.	.	8g\	.	8cc\	.	8ee\	.	.	.	.	.	.	.	.	.	.	.	.	.
.	.	.	.	.	.	.	.	.	.	.	.	.	.	.	.	.	.	.	.	.	8g\J	.	8cc\J	.	8ee\J	.	.	.	.	.	.	.	.	.	.	.	.	.
=48	=48	=48	=48	=48	=48	=48	=48	=48	=48	=48	=48	=48	=48	=48	=48	=48	=48	=48	=48	=48	=48	=48	=48	=48	=48	=48	=48	=48	=48	=48	=48	=48	=48	=48	=48	=48	=48	=48
*	*	*	*	*	*	*	*	*	*	*	*	*	*	*	*	*	*	*	*	*	*	*	*	*	*	*	*	*	*	*	*	*^	*	*	*	*	*	*
4D\	.	4D\yy	.	2.D\	pa-	.	(8B\L	.	.	(8d\L	pa-	.	2.d/	.	.	(8b/L	.	(8dd\L	pa-	.	8r	.	(8b/L	.	(8dd\L	.	2.D\	.	2.dd/	2.dd\	.	8dL 8B\	4ryy	.	(8ddL 8b\	4ryy	.	1r	.
.	.	.	.	.	.	.	8A\J	.	.	8c\J	.	.	.	.	.	8a/J	.	8cc\J	.	.	8d\L	.	8a/J	.	8cc\J	.	.	.	.	.	.	8cJ 8A\	.	.	8ccJ 8a\	.	.	.	.
4r	.	4ryy	.	.	.	.	2G/)	.	.	4B\	.	.	.	.	.	2g/)	.	4b\	.	.	8d\	.	4g/)	.	4b\)	.	.	.	.	.	.	4B/	2G\	.	4b/)	2g\	.	.	.
.	.	.	.	.	.	.	.	.	.	.	.	.	.	.	.	.	.	.	.	.	8d\J	.	.	.	.	.	.	.	.	.	.	.	.	.	.	.	.	.	.
8D\	.	8D\yy	.	.	.	.	.	.	.	4A\)	.	.	.	.	.	.	.	4a\)	.	.	8r	.	8r	.	8r	.	.	.	.	.	.	4A/	.	.	4a/	.	.	.	.
8r	.	8ryy	.	.	.	.	.	.	.	.	.	.	.	.	.	.	.	.	.	.	8d\	.	8g/	.	8a\	.	.	.	.	.	.	.	.	.	.	.	.	.	.
8D\	.	8D\yy	.	4D\	-tri-	.	4F#/	.	.	4d\	-tri-	.	4d/	.	.	4f#/	.	4dd\	-tri-	.	8r	.	8r	.	8r	.	4D\	.	4dd/	4dd\	.	4d/	4F#\	.	4dd/	4f#\	.	.	.
8r	.	8ryy	.	.	.	.	.	.	.	.	.	.	.	.	.	.	.	.	.	.	8a 8d\	.	8f#/	.	8dd\	.	.	.	.	.	.	.	.	.	.	.	.	.	.
!!LO:PB:g=original
=49	=49	=49	=49	=49	=49	=49	=49	=49	=49	=49	=49	=49	=49	=49	=49	=49	=49	=49	=49	=49	=49	=49	=49	=49	=49	=49	=49	=49	=49	=49	=49	=49	=49	=49	=49	=49	=49	=49	=49
4E\	.	4E\yy	.	2E\	-a	.	2G/	.	.	2B\	-a	.	2g/	.	.	2g/	.	2b\	-a	.	8r	.	8r	.	8r	.	2E\	.	2ee/	2ee\	.	2B/	2G\	.	2b 2g/	2ryy	.	1r	.
.	.	.	.	.	.	.	.	.	.	.	.	.	.	.	.	.	.	.	.	.	8e\L	.	8g/L	.	8b\L	.	.	.	.	.	.	.	.	.	.	.	.	.	.
4r	.	4ryy	.	.	.	.	.	.	.	.	.	.	.	.	.	.	.	.	.	.	8e\	.	8g/	.	8b\	.	.	.	.	.	.	.	.	.	.	.	.	.	.
.	.	.	.	.	.	.	.	.	.	.	.	.	.	.	.	.	.	.	.	.	8e\J	.	8g/J	.	8b\J	.	.	.	.	.	.	.	.	.	.	.	.	.	.
4C#X/	.	4C#X/yy	.	2C#X/	in	.	2E/	.	.	2A#X\	in	.	2e/	.	.	2g/	.	2a#X\	in	.	8r	.	8r	.	8r	.	2C#X/	.	2cc#X/	2cc#\	.	2A#X 2E\	2ryy	.	2a#X/	2e\	.	.	.
.	.	.	.	.	.	.	.	.	.	.	.	.	.	.	.	.	.	.	.	.	8c#X\L	.	8e/L	.	8a#X/L	.	.	.	.	.	.	.	.	.	.	.	.	.	.
4r	.	4ryy	.	.	.	.	.	.	.	.	.	.	.	.	.	.	.	.	.	.	8c#\	.	8e/	.	8a#/	.	.	.	.	.	.	.	.	.	.	.	.	.	.
.	.	.	.	.	.	.	.	.	.	.	.	.	.	.	.	.	.	.	.	.	8c#\J	.	8e/J	.	8a#/J	.	.	.	.	.	.	.	.	.	.	.	.	.	.
=50	=50	=50	=50	=50	=50	=50	=50	=50	=50	=50	=50	=50	=50	=50	=50	=50	=50	=50	=50	=50	=50	=50	=50	=50	=50	=50	=50	=50	=50	=50	=50	=50	=50	=50	=50	=50	=50	=50	=50
4D\	.	4D\yy	.	2.D\	pa-	.	(8G/L	.	.	(8B\L	pa-	.	2.d/	.	.	8g/L	.	(8b\L	pa-	.	8r	.	8g'/L	.	8b'\L	.	2.D\	.	2.dd/	2.dd\	.	8BL 8G\	2ryy	.	(>8bL 8g/	2ryy	.	1r	.
.	.	.	.	.	.	.	8B/	.	.	8d\	.	.	.	.	.	8b/	.	8dd\	.	.	8d\L	.	(8b/	.	(8dd\	.	.	.	.	.	.	8d 8B\	.	.	8dd 8b/	.	.	.	.
4r	.	4ryy	.	.	.	.	8A/	.	.	8c\	.	.	.	.	.	8a/	.	8cc\	.	.	8d\	.	8a/	.	8cc\	.	.	.	.	.	.	8c 8A\	.	.	8cc 8a/	.	.	.	.
.	.	.	.	.	.	.	8G/J)	.	.	8B\J	.	.	.	.	.	8g/J	.	8b\J)	.	.	8d\J	.	8g/J)	.	8b\J)	.	.	.	.	.	.	8BJ 8G\	.	.	8bJ 8g/)	.	.	.	.
8D\	.	8D\yy	.	.	.	.	4G/	.	.	4A\)	.	.	.	.	.	4g/	.	4a/	.	.	8r	.	8r	.	8r	.	.	.	.	.	.	4A/	4G\	.	4a/	4g\	.	.	.
8r	.	8ryy	.	.	.	.	.	.	.	.	.	.	.	.	.	.	.	.	.	.	8d\	.	8g/	.	8a/	.	.	.	.	.	.	.	.	.	.	.	.	.	.
8D\	.	8D\yy	.	4D\	-tri-	.	4F#/	.	.	4d\	-tri-	.	4d/	.	.	4f#/	.	4dd\	-tri-	.	8r	.	8r	.	8r	.	4D\	.	4dd/	4dd\	.	4d/	4F#\	.	4dd/	4f#\	.	.	.
8r	.	8ryy	.	.	.	.	.	.	.	.	.	.	.	.	.	.	.	.	.	.	8d\	.	8f#/	.	8dd\	.	.	.	.	.	.	.	.	.	.	.	.	.	.
*	*	*	*	*	*	*	*	*	*	*	*	*	*	*	*	*	*	*	*	*	*	*	*	*	*	*	*	*	*	*	*	*v	*v	*	*	*	*	*	*
*	*	*	*	*	*	*	*	*	*	*	*	*	*	*	*	*	*	*	*	*	*	*	*	*	*	*	*	*	*	*	*	*	*	*v	*v	*	*	*
=51	=51	=51	=51	=51	=51	=51	=51	=51	=51	=51	=51	=51	=51	=51	=51	=51	=51	=51	=51	=51	=51	=51	=51	=51	=51	=51	=51	=51	=51	=51	=51	=51	=51	=51	=51	=51	=51
!	!LO:DY:rj	!	!LO:DY:b:rj	!	!	!	!	!	!	!	!	!	!	!	!	!	!	!	!	!	!	!LO:DY:rj	!LO:TX:a:t=Unis	!LO:DY:rj	!	!LO:DY:rj	!	!	!	!	!	!	!LO:DY:rj	!	!	!	!LO:DY:rj
8G'\L	f	8G'\Lyy	fy	8G\	-a,	.	8G/	.	.	8G/	-a,	.	8g/	.	.	8g/	.	8g/	-a,	.	8g'\L	f	8g'/Lyy	fy	8g'/L	f	8G\	.	8g/	8g\	.	8G\L	f	8g/L	.	8gg'\L	f
(16F#X\L	.	(y16F#X\Lyy	.	8r	.	.	8r	.	.	8r	.	.	8r	.	.	8r	.	8r	.	.	(16f#\L	.	(y16f#/Lyy	.	(16f#/L	.	8r	.	8r	8ryy	.	(16F#\L	.	(16f#/L	.	(16ff#\L	.
16G\JJ)	.	16G\JJ)yy	.	.	.	.	.	.	.	.	.	.	.	.	.	.	.	.	.	.	16g\JJ)	.	16g/JJ)yy	.	16g/JJ)	.	.	.	.	.	.	16G\JJ)	.	16g/JJ)	.	16gg\JJ)	.
(16C#X/LL	.	(y16C#X/LLyy	.	4r	.	.	4r	.	.	4r	.	.	4r	.	.	4r	.	4r	.	.	(16c#X\LL	.	(y16a#X/LLyy	.	(16a#X/LL	.	4r	.	4r	4ryy	.	(16C#X/LL	.	(16a#X/LL	.	(16aa#X\LL	.
16D/JJ)	.	16D/JJ)yy	.	.	.	.	.	.	.	.	.	.	.	.	.	.	.	.	.	.	16d\JJ)	.	16b/JJ)yy	.	16b/JJ)	.	.	.	.	.	.	16D/JJ)	.	16b/JJ)	.	16bb\JJ)	.
(16AA#X/LL	.	(y16AA#X/LLyy	.	.	.	.	.	.	.	.	.	.	.	.	.	.	.	.	.	.	(16A#X/LL	.	(y16cc#X\LLyy	.	(16cc#X\LL	.	.	.	.	.	.	(16AA#X/LL	.	(16cc#X/LL	.	(16ccc#X\LL	.
16BB/JJ)	.	16BB/JJ)yy	.	.	.	.	.	.	.	.	.	.	.	.	.	.	.	.	.	.	16B/JJ)	.	16dd\JJ)yy	.	16dd\JJ)	.	.	.	.	.	.	16BB/JJ)	.	16dd/JJ)	.	16ddd\JJ)	.
4GG/	.	4GG/yy	.	4r	.	.	2r	.	.	2r	.	.	2r	.	.	2r	.	2r	.	.	4G/	.	4ggyy 4byy 4d\yy	.	4gg 4b 4d\	.	2r	.	2r	2ryy	.	4GG/	.	4gg 4b\	.	4ggg\	.
!	!LO:DY:rj	!	!LO:DY:b:rj	!	!	!	!	!	!	!	!	!	!	!	!	!	!	!	!	!	!	!	!	!	!	!	!	!	!	!	!	!	!LO:DY:rj	!	!	!	!
4D\	p	4D\yy	py	4D\	qui	.	.	.	.	.	.	.	.	.	.	.	.	.	.	.	4r	.	4ryy	.	4r	.	.	.	.	.	.	4D\	p	4r	.	4r	.
*	*	*	*	*	*	*	*	*	*	*	*	*	*	*	*	*	*	*	*	*	*	*	*	*	*	*	*	*	*v	*v	*	*	*	*	*	*	*
!!LO:PB:g=original
=52	=52	=52	=52	=52	=52	=52	=52	=52	=52	=52	=52	=52	=52	=52	=52	=52	=52	=52	=52	=52	=52	=52	=52	=52	=52	=52	=52	=52	=52	=52	=52	=52	=52	=52	=52	=52
*	*	*	*	*	*	*	*	*	*	*	*	*	*	*	*	*	*	*	*	*	*	*	*	*	*	*	*	*	*	*	*^	*	*	*	*	*
!	!	!LO:TX:t=//	!	!	!	!	!	!	!	!	!	!	!	!	!	!	!	!	!	!	!	!	!	!	!	!	!	!	!	!	!	!	!	!	!	!	!
(2E-X^<\	.	(y2E-X^<\yy	.	2E-X^\	vi-	.	1r	.	.	2r	.	.	1r	.	.	1r	.	1r	.	.	1r	.	1r	.	1r	.	1r	.	1r	.	2r	(>2E-X^>\	.	1r	.	1r	.
4D\)	.	4D\)yy	.	4D\	-tam	.	.	.	.	4r	.	.	.	.	.	.	.	.	.	.	.	.	.	.	.	.	.	.	.	.	4r	4D\)	.	.	.	.	.
(4D\	.	(y4D\yy	.	(4D\	si-	.	.	.	.	(4d\	si-	.	.	.	.	.	.	.	.	.	.	.	.	.	.	.	.	.	.	.	4d/	4D\	.	.	.	.	.
=53	=53	=53	=53	=53	=53	=53	=53	=53	=53	=53	=53	=53	=53	=53	=53	=53	=53	=53	=53	=53	=53	=53	=53	=53	=53	=53	=53	=53	=53	=53	=53	=53	=53	=53	=53	=53	=53
*	*	*	*	*	*	*	*	*	*	*	*	*	*	*	*	*	*	*	*	*	*	*	*	*	*	*	*	*	*^	*	*	*	*	*	*	*	*
!	!	!	!	!	!	!	!	!	!	!	!	!	!	!	!	!	!	!	!	!	!	!	!	!	!	!	!	!	!	!	!	!	!LO:TX:b:t=P:problem=diminuendolike accent	!	!	!	!	!
2C/)	.	2C/)yy	.	2C/)	.	.	2r	.	.	2e-X^\)	.	.	1r	.	.	1r	.	1r	.	.	2r	.	1r	.	1r	.	1r	.	1r	2r	.	(2e-X/	2C^\	.	1r	.	1r	.
!	!	!	!	!	!	!	!	!	!	!	!	!	!	!	!	!	!	!	!	!	!	!	!	!	!	!	!	!	!LO:TX:b:t=2°.	!	!	!	!	!	!	!	!	!
4BB-X/	.	4BB-X/yy	.	4BB-X/	-ne	.	4r	.	.	4d\	-ne	.	.	.	.	.	.	.	.	.	4r	.	.	.	.	.	.	.	.	4r	.	4d/)	4BB-X\	.	.	.	.	.
!	!	!	!	!	!	!	!	!	!	!	!	!	!	!	!	!	!	!	!	!	!	!LO:DY:rj	!	!	!	!	!	!	!	!	!	!	!	!	!	!	!	!
(4BB-/	.	(y4BB-/yy	.	(4BB-/	ter-	.	(4G/	ter-	.	(4d\	ter-	.	.	.	.	.	.	.	.	.	(4G/	p	.	.	.	.	.	.	.	4g/	p	(4d/	(4BB-\	.	.	.	.	.
=54	=54	=54	=54	=54	=54	=54	=54	=54	=54	=54	=54	=54	=54	=54	=54	=54	=54	=54	=54	=54	=54	=54	=54	=54	=54	=54	=54	=54	=54	=54	=54	=54	=54	=54	=54	=54	=54	=54
8.AA/L)	.	8.AA/L)yy	.	8.AA/)	.	.	8.F#/)	.	.	8.c\L)	.	.	1r	.	.	1r	.	1r	.	.	8.F#/L)	.	1r	.	1r	.	1r	.	1raa	8.f#X/L	.	8.c/L)	8.AA/L)	.	1r	.	1r	.
16AA/Jk|	.	16AA/Jk|yy	.	16AA/	-mi-	.	16F#/	-mi-	.	16c\Jk|	-mi-	.	.	.	.	.	.	.	.	.	16F#/Jk	.	.	.	.	.	.	.	.	16f#/Jk	.	16c'/Jk	16AA/Jk	.	.	.	.	.
4AA/|	.	4AA/|yy	.	4AA/	-no	.	4F#/	-no	.	4c\	-no	.	.	.	.	.	.	.	.	.	4F#/	.	.	.	.	.	.	.	.	4f#/	.	4c'/	4AA/	.	.	.	.	.
(4GG/	.	(y4GG/yy	.	(>4GG/	no-	.	2G/	no-	.	(4B-X\	no-	.	.	.	.	.	.	.	.	.	2G/	.	.	.	.	.	.	.	.	2g/	.	(4B-X/	4GG/	.	.	.	.	.
4BB-X/)	.	4BB-X/)yy	.	4BB-X/)	.	.	.	.	.	4G/)	.	.	.	.	.	.	.	.	.	.	.	.	.	.	.	.	.	.	.	.	.	(4G/)	4BB-X/	.	.	.	.	.
=55	=55	=55	=55	=55	=55	=55	=55	=55	=55	=55	=55	=55	=55	=55	=55	=55	=55	=55	=55	=55	=55	=55	=55	=55	=55	=55	=55	=55	=55	=55	=55	=55	=55	=55	=55	=55	=55	=55
2.D\	.	2.D\yy	.	2.D\	-bis	.	2.F#/	-bis	.	2.d\	-bis	.	2r	.	.	2r	.	2r	.	.	2.F#/	.	2r	.	2r	.	2r	.	2rgg	2.f#X/	.	2.A/)	2.D\	.	2r	.	16r	.
.	.	.	.	.	.	.	.	.	.	.	.	.	.	.	.	.	.	.	.	.	.	.	.	.	.	.	.	.	.	.	.	.	.	.	.	.	16fff#\LL	.
.	.	.	.	.	.	.	.	.	.	.	.	.	.	.	.	.	.	.	.	.	.	.	.	.	.	.	.	.	.	.	.	.	.	.	.	.	16ddd\	.
.	.	.	.	.	.	.	.	.	.	.	.	.	.	.	.	.	.	.	.	.	.	.	.	.	.	.	.	.	.	.	.	.	.	.	.	.	16aa\JJ	.
.	.	.	.	.	.	.	.	.	.	.	.	.	.	.	.	.	.	.	.	.	.	.	.	.	.	.	.	.	.	.	.	.	.	.	.	.	16ff#\LL	.
.	.	.	.	.	.	.	.	.	.	.	.	.	.	.	.	.	.	.	.	.	.	.	.	.	.	.	.	.	.	.	.	.	.	.	.	.	16dd\	.
.	.	.	.	.	.	.	.	.	.	.	.	.	.	.	.	.	.	.	.	.	.	.	.	.	.	.	.	.	.	.	.	.	.	.	.	.	16a\	.
.	.	.	.	.	.	.	.	.	.	.	.	.	.	.	.	.	.	.	.	.	.	.	.	.	.	.	.	.	.	.	.	.	.	.	.	.	16f#\JJ	.
.	.	.	.	.	.	.	.	.	.	.	.	.	4r	.	.	4r	.	4r	.	.	.	.	4r	.	4r	.	4r	.	4rgg	.	.	.	.	.	4r	.	4d/	.
!	!	!	!LO:DY:b	!LO:TX:b:t=P:problem=brak początku łuku	!	!	!LO:TX:b:t=P:problem=brak początku łuku	!	!	!LO:TX:a:t=P:problem=brak początku ligatury	!	!	!LO:TX:b:t=P:problem=brak początku ligatury	!	!	!LO:TX:b:t=P:problem=brak początku ligatury	!	!LO:TX:a:t=P:problem=brak początku ligatury	!	!	!	!	!	!	!	!	!	!	!	!	!	!	!	!	!	!	!	!
8C/	sf	8C/yy	sfy	(4C/	do-	.	(4F#/	do	.	[4d\	do-	.	[4d/	.	.	(4f#/	.	[4dd\	do-	.	8r	.	8r	.	8r	.	4C/	.	4dd 4f#/	4ryy	.	4c 4C\	4ryy	.	4dd 4f#/	sf	4r	.
8r	.	8ryy	.	.	.	.	.	.	.	.	.	.	.	.	.	.	.	.	.	.	8d\	.	8f#/	sf	8dd\	sf	.	.	.	.	.	.	.	.	.	.	.	.
*	*	*	*	*	*	*	*	*	*	*	*	*	*	*	*	*	*	*	*	*	*	*	*	*	*	*	*	*	*v	*v	*	*	*	*	*	*	*	*
*	*	*	*	*	*	*	*	*	*	*	*	*	*	*	*	*	*	*	*	*	*	*	*	*	*	*	*	*	*	*	*v	*v	*	*	*	*	*
!!LO:PB:g=original
=56	=56	=56	=56	=56	=56	=56	=56	=56	=56	=56	=56	=56	=56	=56	=56	=56	=56	=56	=56	=56	=56	=56	=56	=56	=56	=56	=56	=56	=56	=56	=56	=56	=56	=56	=56	=56
*	*	*	*	*	*	*	*	*	*	*	*	*	*	*	*	*	*	*	*	*	*	*	*	*	*	*	*	*	*	*	*	*	*^	*	*	*
!	!LO:DY:a:rj	!	!LO:DY:a:rj	!	!	!	!	!	!	!	!	!	!	!	!	!	!	!	!	!	!	!	!	!	!	!	!	!LO:DY:rj	!	!	!	!LO:DY:rj	!	!	!LO:DY:rj	!	!
4BB/	f	4BB/yy	fy	2BB/)	.	.	2G/)	.	.	2d\]	.	.	2d/]	.	.	2g/)	.	2dd\]	.	.	8r	.	8r	.	8r	f	2.BB/	f	2.dd 2.g/	.	2.B 2.BB\	f	2dd/	2.g\	f	1r	.
.	.	.	.	.	.	.	.	.	.	.	.	.	.	.	.	.	.	.	.	.	8d\L	.	8g/L	.	8dd\L	.	.	.	.	.	.	.	.	.	.	.	.
4r	.	4ryy	.	.	.	.	.	.	.	.	.	.	.	.	.	.	.	.	.	.	8d\	.	8g/	.	8dd\	.	.	.	.	.	.	.	.	.	.	.	.
.	.	.	.	.	.	.	.	.	.	.	.	.	.	.	.	.	.	.	.	.	8d\J	.	8g/J	.	8dd\J	.	.	.	.	.	.	.	.	.	.	.	.
8BB/	.	8BB/yy	.	4BB/	-net	.	4G/	.	.	4g\	-net	.	4d/	.	.	4g/	.	4gg\	-net	.	8r	.	8r	.	8r	.	.	.	.	.	.	.	4gg/	.	.	.	.
8r	.	8ryy	.	.	.	.	.	.	.	.	.	.	.	.	.	.	.	.	.	.	8g\	.	8dd\	.	8gg\	.	.	.	.	.	.	.	.	.	.	.	.
8C/	.	8C/yy	.	4C/	in	.	4c\	.	.	4e\	in	.	4g/	.	.	4cc\	.	4ee\	in	.	8r	.	8r	.	8r	.	4C/	.	4ee 4cc\	.	4c 4C\	.	4ee/	4cc\	.	.	.
8r	.	8ryy	.	.	.	.	.	.	.	.	.	.	.	.	.	.	.	.	.	.	8g\	.	8cc\	.	8ee\	.	.	.	.	.	.	.	.	.	.	.	.
*	*	*	*	*	*	*	*	*	*	*	*	*	*	*	*	*	*	*	*	*	*	*	*	*	*	*	*	*	*	*	*	*	*v	*v	*	*	*
=57	=57	=57	=57	=57	=57	=57	=57	=57	=57	=57	=57	=57	=57	=57	=57	=57	=57	=57	=57	=57	=57	=57	=57	=57	=57	=57	=57	=57	=57	=57	=57	=57	=57	=57	=57	=57
*	*	*	*	*	*	*	*^	*	*	*	*	*	*	*	*	*	*	*	*	*	*	*	*	*	*	*	*	*	*^	*	*	*	*	*	*	*
4D\	.	4D\yy	.	2.D\	pa-	.	(4F#/	2ryy	.	.	(4A\	pa-	.	2.d/	.	.	(4f#/	.	4a/	pa-	.	8r	.	8r	.	8r	.	2.D\	.	2.dd/	2.dd\	.	(4A 4F#\	.	(>4a 4f#/	.	1r	.
.	.	.	.	.	.	.	.	.	.	.	.	.	.	.	.	.	.	.	.	.	.	8d\L	.	(8f#/L	.	(>8a/L	.	.	.	.	.	.	.	.	.	.	.	.
4r	.	4ryy	.	.	.	.	8G/L	.	.	.	8B\L	.	.	.	.	.	8g/L	.	(<8b/L	.	.	8d\	.	8g/	.	8b/	.	.	.	.	.	.	8BL 8G\	.	8bL 8g/	.	.	.
.	.	.	.	.	.	.	8A/J	.	.	.	8c\J	.	.	.	.	.	8a/J	.	8cc/J	.	.	8d\J	.	8a/J)	.	8cc/J)	.	.	.	.	.	.	8cJ 8A\	.	8ccJ 8a/	.	.	.
8D\	.	8D\yy	.	.	.	.	4B\)	4ryy	.	.	4d\)	.	.	.	.	.	4b/)	.	4dd\)	.	.	8r	.	8r	.	8r	.	.	.	.	.	.	4d 4B\)	.	4dd 4b/)	.	.	.
8r	.	8ryy	.	.	.	.	.	.	.	.	.	.	.	.	.	.	.	.	.	.	.	8d\	.	8b/	.	8dd\	.	.	.	.	.	.	.	.	.	.	.	.
8D#X\	.	8D#X\yy	.	4D#X\	-tri-	.	4A/	4F#\	.	.	4c\	-tri-	.	4f#/	.	.	4a/	.	4cc\	-tri-	.	8r	.	8r	.	8r	.	4D#X\	.	4dd#X/	4dd#\	.	4c 4A\	.	4cc 4a/	.	.	.
8r	.	8ryy	.	.	.	.	.	.	.	.	.	.	.	.	.	.	.	.	.	.	.	8d#X\	.	8a 8f#/	.	8cc\	.	.	.	.	.	.	.	.	.	.	.	.
*	*	*	*	*	*	*	*v	*v	*	*	*	*	*	*	*	*	*	*	*	*	*	*	*	*	*	*	*	*	*	*	*	*	*	*	*	*	*	*
=58	=58	=58	=58	=58	=58	=58	=58	=58	=58	=58	=58	=58	=58	=58	=58	=58	=58	=58	=58	=58	=58	=58	=58	=58	=58	=58	=58	=58	=58	=58	=58	=58	=58	=58	=58	=58	=58
*	*	*	*	*	*	*	*	*	*	*	*	*	*	*	*	*	*	*	*	*	*	*	*	*	*	*	*	*	*	*	*	*	*	*^	*	*	*
4E\	.	4E\yy	.	2E\	-a	.	2G/	.	.	2B\	-a	.	2g/	.	.	2g/	.	2b\	-a	.	8r	.	8r	.	8r	.	2E\	.	2ee/	2ee\	.	2B 2G\	.	2b 2g/	2ryy	.	1r	.
.	.	.	.	.	.	.	.	.	.	.	.	.	.	.	.	.	.	.	.	.	8e\L	.	8g/L	.	8b\L	.	.	.	.	.	.	.	.	.	.	.	.	.
4r	.	4ryy	.	.	.	.	.	.	.	.	.	.	.	.	.	.	.	.	.	.	8e\	.	8g/	.	8b\	.	.	.	.	.	.	.	.	.	.	.	.	.
.	.	.	.	.	.	.	.	.	.	.	.	.	.	.	.	.	.	.	.	.	8e\J	.	8g/J	.	8b\J	.	.	.	.	.	.	.	.	.	.	.	.	.
4C/	.	4C/yy	.	2C/	in	.	2G/	.	.	2e\	in	.	2g/	.	.	2cc\	.	2ee\	in	.	8r	.	8r	.	8r	.	2C/	.	2ee 2cc/	2ryy	.	2e 2c\	.	2ee/	2g\	.	.	.
.	.	.	.	.	.	.	.	.	.	.	.	.	.	.	.	.	.	.	.	.	8g\L	.	8cc\L	.	8ee\L	.	.	.	.	.	.	.	.	.	.	.	.	.
4r	.	4ryy	.	.	.	.	.	.	.	.	.	.	.	.	.	.	.	.	.	.	8g\	.	8cc\	.	8ee\	.	.	.	.	.	.	.	.	.	.	.	.	.
.	.	.	.	.	.	.	.	.	.	.	.	.	.	.	.	.	.	.	.	.	8g\J	.	8cc\J	.	8ee\J	.	.	.	.	.	.	.	.	.	.	.	.	.
!!LO:PB:g=original
=59	=59	=59	=59	=59	=59	=59	=59	=59	=59	=59	=59	=59	=59	=59	=59	=59	=59	=59	=59	=59	=59	=59	=59	=59	=59	=59	=59	=59	=59	=59	=59	=59	=59	=59	=59	=59	=59	=59
*	*	*	*	*	*	*	*	*	*	*	*	*	*	*	*	*	*	*	*	*	*	*	*	*	*	*	*	*	*	*	*	*^	*	*	*	*	*	*
4D\	.	4D\yy	.	2.D\	pa-	.	(8B/L	.	.	8d\L	pa-	.	2.d/	pa-	.	(8b/L	pa-	(8dd\L	pa-	.	8r	.	(8b/L	.	(8dd\L	.	2.D\	.	2.dd/	2.dd\	.	8dL 8B\	4ryy	.	(8ddL 8b\	4ryy	.	1r	.
.	.	.	.	.	.	.	8A/J	.	.	(8c\J	.	.	.	.	.	8a/J	.	8cc\J	.	.	8d\L	.	8a/J	.	8cc\J	.	.	.	.	.	.	8cJ 8A\	.	.	8ccJ 8a\)	.	.	.	.
4r	.	4ryy	.	.	.	.	2G/)	.	.	4B\	.	.	.	.	.	4g/	.	4b\	.	.	8d\	.	4g/)	.	4b\)	.	.	.	.	.	.	4B/	2G\	.	4b/	2g\	.	.	.
.	.	.	.	.	.	.	.	.	.	.	.	.	.	.	.	.	.	.	.	.	8d\J	.	.	.	.	.	.	.	.	.	.	.	.	.	.	.	.	.	.
8D\	.	8D\yy	.	.	.	.	.	.	.	4A\)	.	.	.	.	.	4g/)	.	4a\)	-tri-	.	8r	.	8r	.	8r	.	.	.	.	.	.	4A/	.	.	4a/	.	.	.	.
8r	.	8ryy	.	.	.	.	.	.	.	.	.	.	.	.	.	.	.	.	.	.	8d\	.	8g/	.	8a\	.	.	.	.	.	.	.	.	.	.	.	.	.	.
8D\	.	8D\yy	.	4D\	-tri-	.	4F#/	.	.	4d\	-tri-	.	4d/	-tri-	.	4f#/	tri-	4dd\	.	.	8r	.	8r	.	8r	.	4D\	.	4dd/	4dd\	.	4d/	4F#\	.	4dd/	4f#\	.	.	.
8r	.	8ryy	.	.	.	.	.	.	.	.	.	.	.	.	.	.	.	.	.	.	8a 8d\	.	8f#/	.	8dd\	.	.	.	.	.	.	.	.	.	.	.	.	.	.
=60	=60	=60	=60	=60	=60	=60	=60	=60	=60	=60	=60	=60	=60	=60	=60	=60	=60	=60	=60	=60	=60	=60	=60	=60	=60	=60	=60	=60	=60	=60	=60	=60	=60	=60	=60	=60	=60	=60	=60
!	!	!	!	!	!	!	!	!	!	!	!	!	!	!	!	!	!	!	!	!	!	!	!	!	!	!	!	!	!	!	!	!	!	!	!LO:N:vis=2.	!LO:N:vis=2.	!	!	!
4E\	.	4E\yy	.	2E\	-a	.	2G/	.	.	2B\	-a	.	2g/	-a	.	2g/	-a	2b\	-a	.	8r	.	8r	.	8r	.	2E\	.	2ee/	2ee\	.	2B/	2G\	.	2b/	2g\	.	1r	.
.	.	.	.	.	.	.	.	.	.	.	.	.	.	.	.	.	.	.	.	.	8e\L	.	8g/L	.	8b/L	.	.	.	.	.	.	.	.	.	.	.	.	.	.
4r	.	4ryy	.	.	.	.	.	.	.	.	.	.	.	.	.	.	.	.	.	.	8e\	.	8g/	.	8b/	.	.	.	.	.	.	.	.	.	.	.	.	.	.
.	.	.	.	.	.	.	.	.	.	.	.	.	.	.	.	.	.	.	.	.	8e\J	.	8g/J	.	8b/J	.	.	.	.	.	.	.	.	.	.	.	.	.	.
4C#X/	.	4C#X/yy	.	2C#X/	in	.	2E/	.	.	2A#X\	in	.	2e/	in	.	2g/	.	2a#X/	in	.	8r	.	8r	.	8r	.	2C#X/	.	2cc#X^/	2cc#\	.	2A#X/	2E\	.	2a#X^/	2e\	.	.	.
.	.	.	.	.	.	.	.	.	.	.	.	.	.	.	.	.	.	.	.	.	8c#X\L	.	8e/L	.	8a#X/L	.	.	.	.	.	.	.	.	.	.	.	.	.	.
4r	.	4ryy	.	.	.	.	.	.	.	.	.	.	.	.	.	.	.	.	.	.	8c#\	.	8e/	.	8a#/	.	.	.	.	.	.	.	.	.	.	.	.	.	.
.	.	.	.	.	.	.	.	.	.	.	.	.	.	.	.	.	.	.	.	.	8c#\J	.	8e/J	.	8a#/J	.	.	.	.	.	.	.	.	.	.	.	.	.	.
=61	=61	=61	=61	=61	=61	=61	=61	=61	=61	=61	=61	=61	=61	=61	=61	=61	=61	=61	=61	=61	=61	=61	=61	=61	=61	=61	=61	=61	=61	=61	=61	=61	=61	=61	=61	=61	=61	=61	=61
4D\	.	4D\yy	.	2.D\	pa-	.	(8G\L	.	.	(8B\L	pa-	.	2.d/	pa-	.	(8g/L	.	(8b\L	pa-	.	8r	.	8g'/L	.	8b'/L	.	2.D\	.	2.dd/	2.dd\	.	(8BL 8G\	2ryy	.	(>8bL 8g/	2ryy	.	1r	.
.	.	.	.	.	.	.	8B\	.	.	8d\	.	.	.	.	.	8b/	.	8dd\	.	.	8d\L	.	(8b/	.	(>8dd/	.	.	.	.	.	.	8d 8B\	.	.	8dd 8b/	.	.	.	.
4r	.	4ryy	.	.	.	.	8A\	.	.	8c\	.	.	.	.	.	8a/	.	8cc\	.	.	8d\	.	8a/	.	8cc/	.	.	.	.	.	.	8c 8A\	.	.	8cc 8a/	.	.	.	.
.	.	.	.	.	.	.	8G\J	.	.	8B\J	.	.	.	.	.	8g/J	.	8b\J	.	.	8d\J	.	8g/J)	.	8b/J)	.	.	.	.	.	.	8BJ 8G\	.	.	8bJ 8g/	.	.	.	.
8D\	.	8D\yy	.	.	.	.	4G/)	.	.	4A\)	.	.	.	.	.	4g/)	.	4a\)	.	.	8r	.	8r	.	8r	.	.	.	.	.	.	4A/)	4G\	.	4a/)	4g\	.	.	.
8r	.	8ryy	.	.	.	.	.	.	.	.	.	.	.	.	.	.	.	.	.	.	8d\	.	8g/	.	8a/	.	.	.	.	.	.	.	.	.	.	.	.	.	.
8D\	.	8D\yy	.	4D\	-tri-	.	4F#/	.	.	4d\	-tri-	.	4d/	-tri	.	4f#/	.	4dd\	-tri-	.	8r	.	8r	.	8r	.	4D\	.	4dd/	4dd\	.	4d/	4F#\	.	4dd/	4f#\	.	.	.
8r	.	8ryy	.	.	.	.	.	.	.	.	.	.	.	.	.	.	.	.	.	.	8d\	.	8f#/	.	8dd\	.	.	.	.	.	.	.	.	.	.	.	.	.	.
*	*	*	*	*	*	*	*	*	*	*	*	*	*	*	*	*	*	*	*	*	*	*	*	*	*	*	*	*	*	*	*	*v	*v	*	*	*	*	*	*
*	*	*	*	*	*	*	*	*	*	*	*	*	*	*	*	*	*	*	*	*	*	*	*	*	*	*	*	*	*	*	*	*	*	*v	*v	*	*	*
!!LO:PB:g=original
=62	=62	=62	=62	=62	=62	=62	=62	=62	=62	=62	=62	=62	=62	=62	=62	=62	=62	=62	=62	=62	=62	=62	=62	=62	=62	=62	=62	=62	=62	=62	=62	=62	=62	=62	=62	=62	=62
!	!	!LO:TX:t=//	!	!	!	!	!	!	!	!	!	!	!	!	!	!	!	!	!	!	!	!	!	!	!	!	!	!	!	!	!	!	!	!	!	!	!
4G\	.	4G\yy	.	4G\	-a.	.	4G/	.	.	4G/	-a.	.	4g/	.	.	4g/	.	4g/	-a.	.	4g\	.	4g/	.	4g/	.	4G\	.	4g/	4g\	.	4G\	.	4g/	.	8g'/L	.
.	.	.	.	.	.	.	.	.	.	.	.	.	.	.	.	.	.	.	.	.	.	.	.	.	.	.	.	.	.	.	.	.	.	.	.	(16f#/L	.
.	.	.	.	.	.	.	.	.	.	.	.	.	.	.	.	.	.	.	.	.	.	.	.	.	.	.	.	.	.	.	.	.	.	.	.	16g/JJ)	.
4r	.	4ryy	.	4r	.	.	4r	.	.	4r	.	.	4r	.	.	4r	.	4r	.	.	4r	.	4r	.	4r	.	4r	.	4r	4ryy	.	4r	.	4r	.	(16a#X/LL	.
.	.	.	.	.	.	.	.	.	.	.	.	.	.	.	.	.	.	.	.	.	.	.	.	.	.	.	.	.	.	.	.	.	.	.	.	16b/)	.
.	.	.	.	.	.	.	.	.	.	.	.	.	.	.	.	.	.	.	.	.	.	.	.	.	.	.	.	.	.	.	.	.	.	.	.	(16cc#X/	.
.	.	.	.	.	.	.	.	.	.	.	.	.	.	.	.	.	.	.	.	.	.	.	.	.	.	.	.	.	.	.	.	.	.	.	.	16dd/JJ)	.
2r	.	2ryy	.	2r	.	.	2r	.	.	2r	.	.	2r	.	.	2r	.	2r	.	.	2r	.	2r	.	2r	.	2r	.	2r	2ryy	.	2r	.	2r	.	8gg'\L	.
.	.	.	.	.	.	.	.	.	.	.	.	.	.	.	.	.	.	.	.	.	.	.	.	.	.	.	.	.	.	.	.	.	.	.	.	(16ff#\L	.
.	.	.	.	.	.	.	.	.	.	.	.	.	.	.	.	.	.	.	.	.	.	.	.	.	.	.	.	.	.	.	.	.	.	.	.	16gg\JJ)	.
.	.	.	.	.	.	.	.	.	.	.	.	.	.	.	.	.	.	.	.	.	.	.	.	.	.	.	.	.	.	.	.	.	.	.	.	(16aa#X\LL	.
.	.	.	.	.	.	.	.	.	.	.	.	.	.	.	.	.	.	.	.	.	.	.	.	.	.	.	.	.	.	.	.	.	.	.	.	16bb\JJ)	.
.	.	.	.	.	.	.	.	.	.	.	.	.	.	.	.	.	.	.	.	.	.	.	.	.	.	.	.	.	.	.	.	.	.	.	.	(16ccc#X\LL	.
.	.	.	.	.	.	.	.	.	.	.	.	.	.	.	.	.	.	.	.	.	.	.	.	.	.	.	.	.	.	.	.	.	.	.	.	16ddd\JJ)	.
=63	=63	=63	=63	=63	=63	=63	=63	=63	=63	=63	=63	=63	=63	=63	=63	=63	=63	=63	=63	=63	=63	=63	=63	=63	=63	=63	=63	=63	=63	=63	=63	=63	=63	=63	=63	=63	=63
*	*	*	*	*	*	*	*	*	*	*	*	*	*	*	*	*	*	*	*	*	*	*	*	*	*	*	*	*	*	*	*	*	*	*^	*	*	*
1r	.	1ryy	.	2r	.	.	2r	.	.	2r	.	.	2r	.	.	2r	.	2r	.	.	1r	.	1r	.	1r	.	1r	.	2r	2ryy	.	2r	.	2r	2ryy	.	4ggg\	.
.	.	.	.	.	.	.	.	.	.	.	.	.	.	.	.	.	.	.	.	.	.	.	.	.	.	.	.	.	.	.	.	.	.	.	.	.	4r	.
!	!	!	!	!	!	!	!	!	!	!	!	!	!	!	!	!	!	!	!	!	!	!	!	!	!	!	!	!	!	!	!	!	!LO:DY:rj	!	!	!LO:DY:rj	!	!
.	.	.	.	[2C/	A-	.	[2c\	.	.	[2e\	A-	.	[>2g/	.	.	[2cc\	.	[2ee\	A-	.	.	.	.	.	.	.	.	.	2ee/	2g\	.	2c 2C\	p	2ee/	2cc\	p	2r	.
*	*	*	*	*	*	*	*	*	*	*	*	*	*	*	*	*	*	*	*	*	*	*	*	*	*	*	*	*	*v	*v	*	*	*	*v	*v	*	*	*
=64	=64	=64	=64	=64	=64	=64	=64	=64	=64	=64	=64	=64	=64	=64	=64	=64	=64	=64	=64	=64	=64	=64	=64	=64	=64	=64	=64	=64	=64	=64	=64	=64	=64	=64	=64	=64
!	!	!	!	!	!	!	!	!	!	!	!	!LO:HP:b	!	!	!	!	!	!	!	!	!	!	!	!	!	!	!	!	!	!	!	!	!	!	!	!
1r	.	1ryy	.	1C]	.	.	1c]	.	.	1e]	.	<	1g]	.	.	1cc]	.	1ee]	.	.	1r	.	1r	.	1r	.	1r	.	1ee 1g	.	1c 1C	.	1ee 1cc	.	8r	.
*	*	*	*	*	*	*	*	*	*	*	*	*	*	*	*	*	*	*	*	*	*	*	*	*	*	*	*	*	*	*	*	*	*	*	*tuplet	*
!	!	!	!	!	!	!	!	!	!	!	!	!	!	!	!	!	!	!	!	!	!	!	!	!	!	!	!	!	!	!	!	!	!	!	!LO:TUP:a	!
.	.	.	.	.	.	.	.	.	.	.	.	.	.	.	.	.	.	.	.	.	.	.	.	.	.	.	.	.	.	.	.	.	.	.	24ggg'\LL	.
.	.	.	.	.	.	.	.	.	.	.	.	.	.	.	.	.	.	.	.	.	.	.	.	.	.	.	.	.	.	.	.	.	.	.	24eee'\	.
.	.	.	.	.	.	.	.	.	.	.	.	.	.	.	.	.	.	.	.	.	.	.	.	.	.	.	.	.	.	.	.	.	.	.	24ccc'\JJ	.
.	.	.	.	.	.	<	.	.	.	.	.	.	.	.	<	.	.	.	.	<	.	.	.	.	.	.	.	.	.	.	.	.	.	.	8gg'\L	.
!	!	!	!	!	!	!	!	!	!	!	!	!	!	!	!	!	!	!	!	!	!	!	!	!	!	!	!	!	!	!	!	!	!	!	!LO:TUP:a	!
.	.	.	.	.	.	.	.	.	.	.	.	.	.	.	.	.	.	.	.	.	.	.	.	.	.	.	.	.	.	.	.	.	.	.	24eee'\L	.
.	.	.	.	.	.	.	.	.	.	.	.	.	.	.	.	.	.	.	.	.	.	.	.	.	.	.	.	.	.	.	.	.	.	.	24ccc'\	.
.	.	.	.	.	.	.	.	.	.	.	.	.	.	.	.	.	.	.	.	.	.	.	.	.	.	.	.	.	.	.	.	.	.	.	24gg'\JJ	.
.	.	.	.	.	.	.	.	.	.	.	.	.	.	.	.	.	.	.	.	.	.	.	.	.	.	.	.	.	.	.	.	.	.	.	8ee'\L	.
!	!	!	!	!	!	!	!	!	!	!	!	!	!	!	!	!	!	!	!	!	!	!	!	!	!	!	!	!	!	!	!	!	!	!	!LO:TUP:a	!
.	.	.	.	.	.	.	.	.	.	.	.	.	.	.	.	.	.	.	.	.	.	.	.	.	.	.	.	.	.	.	.	.	.	.	24ccc'\L	.
.	.	.	.	.	.	.	.	.	.	.	.	.	.	.	.	.	.	.	.	.	.	.	.	.	.	.	.	.	.	.	.	.	.	.	24gg'\	.
.	.	.	.	.	.	.	.	.	.	.	.	.	.	.	.	.	.	.	.	.	.	.	.	.	.	.	.	.	.	.	.	.	.	.	24ee'\JJ	.
!	!	!	!LO:DY:b	!	!	!	!	!	!	!	!	!	!	!	!	!	!	!	!	!	!	!	!	!	!	!	!	!	!	!	!	!	!	!	!	!
.	ff	.	ffy	.	.	.	.	.	.	.	.	.	.	.	.	.	.	.	.	.	.	ff	.	.	.	ff	.	.	.	.	.	ff	.	.	8cc'\L	.
.	.	.	.	.	.	.	.	.	.	.	.	.	.	.	.	.	.	.	.	.	.	.	.	.	.	.	.	.	.	.	.	.	.	.	8eee'\J	.
.	.	.	.	.	.	[	.	.	.	.	.	[	.	.	[	.	.	.	.	[	.	.	.	.	.	.	.	.	.	.	.	.	.	.	.	ff
=65	=65	=65	=65	=65	=65	=65	=65	=65	=65	=65	=65	=65	=65	=65	=65	=65	=65	=65	=65	=65	=65	=65	=65	=65	=65	=65	=65	=65	=65	=65	=65	=65	=65	=65	=65	=65
*tremolo	*	*tremolo	*	*	*	*	*	*	*	*	*	*	*	*	*	*	*	*	*	*	*tremolo	*	*tremolo	*	*tremolo	*	*	*	*	*	*	*	*	*	*	*
32G\LLL	.	32G\LLLyy	.	1G;	-men.	.	1B;	.	.	1d;	-men.	.	1g;	.	.	1b;	.	1dd;	-men.	.	32gLLL 32G\	.	32bLLL 32d/	.	32ggLLL 32b\	.	1GG;	.	1dd 1g;	.	1B 1GG;	.	1dd 1b;	.	1ggg;	.
32G\	.	32G\yy	.	.	.	.	.	.	.	.	.	.	.	.	.	.	.	.	.	.	32g 32G\	.	32b 32d/	.	32gg 32b\	.	.	.	.	.	.	.	.	.	.	.
32G\	.	32G\yy	.	.	.	.	.	.	.	.	.	.	.	.	.	.	.	.	.	.	32g 32G\	.	32b 32d/	.	32gg 32b\	.	.	.	.	.	.	.	.	.	.	.
32G\	.	32G\yy	.	.	.	.	.	.	.	.	.	.	.	.	.	.	.	.	.	.	32g 32G\	.	32b 32d/	.	32gg 32b\	.	.	.	.	.	.	.	.	.	.	.
32G\	.	32G\yy	.	.	.	.	.	.	.	.	.	.	.	.	.	.	.	.	.	.	32g 32G\	.	32b 32d/	.	32gg 32b\	.	.	.	.	.	.	.	.	.	.	.
32G\	.	32G\yy	.	.	.	.	.	.	.	.	.	.	.	.	.	.	.	.	.	.	32g 32G\	.	32b 32d/	.	32gg 32b\	.	.	.	.	.	.	.	.	.	.	.
32G\	.	32G\yy	.	.	.	.	.	.	.	.	.	.	.	.	.	.	.	.	.	.	32g 32G\	.	32b 32d/	.	32gg 32b\	.	.	.	.	.	.	.	.	.	.	.
32G\	.	32G\yy	.	.	.	.	.	.	.	.	.	.	.	.	.	.	.	.	.	.	32g 32G\	.	32b 32d/	.	32gg 32b\	.	.	.	.	.	.	.	.	.	.	.
32G\	.	32G\yy	.	.	.	.	.	.	.	.	.	.	.	.	.	.	.	.	.	.	32g 32G\	.	32b 32d/	.	32gg 32b\	.	.	.	.	.	.	.	.	.	.	.
32G\	.	32G\yy	.	.	.	.	.	.	.	.	.	.	.	.	.	.	.	.	.	.	32g 32G\	.	32b 32d/	.	32gg 32b\	.	.	.	.	.	.	.	.	.	.	.
32G\	.	32G\yy	.	.	.	.	.	.	.	.	.	.	.	.	.	.	.	.	.	.	32g 32G\	.	32b 32d/	.	32gg 32b\	.	.	.	.	.	.	.	.	.	.	.
32G\	.	32G\yy	.	.	.	.	.	.	.	.	.	.	.	.	.	.	.	.	.	.	32g 32G\	.	32b 32d/	.	32gg 32b\	.	.	.	.	.	.	.	.	.	.	.
32G\	.	32G\yy	.	.	.	.	.	.	.	.	.	.	.	.	.	.	.	.	.	.	32g 32G\	.	32b 32d/	.	32gg 32b\	.	.	.	.	.	.	.	.	.	.	.
32G\	.	32G\yy	.	.	.	.	.	.	.	.	.	.	.	.	.	.	.	.	.	.	32g 32G\	.	32b 32d/	.	32gg 32b\	.	.	.	.	.	.	.	.	.	.	.
32G\	.	32G\yy	.	.	.	.	.	.	.	.	.	.	.	.	.	.	.	.	.	.	32g 32G\	.	32b 32d/	.	32gg 32b\	.	.	.	.	.	.	.	.	.	.	.
32G\JJJ	.	32G\JJJyy	.	.	.	.	.	.	.	.	.	.	.	.	.	.	.	.	.	.	32gJJJ 32G\	.	32bJJJ 32d/	.	32ggJJJ 32b\	.	.	.	.	.	.	.	.	.	.	.
*	*	*	*	*	*	*	*	*	*	*	*	*	*	*	*	*	*	*	*	*	*Xtremolo	*	*Xtremolo	*	*Xtremolo	*	*	*	*	*	*	*	*	*	*	*
2G;\	.	2G;\yy	.	.	.	.	.	.	.	.	.	.	.	.	.	.	.	.	.	.	2g 2G;\	.	2b 2d;/	.	2gg 2b;\	.	.	.	.	.	.	.	.	.	.	.
==	==	==	==	==	==	==	==	==	==	==	==	==	==	==	==	==	==	==	==	==	==	==	==	==	==	==	==	==	==	==	==	==	==	==	==	==
*-	*-	*-	*-	*-	*-	*-	*-	*-	*-	*-	*-	*-	*-	*-	*-	*-	*-	*-	*-	*-	*-	*-	*-	*-	*-	*-	*-	*-	*-	*-	*-	*-	*-	*-	*-	*-
!!!system-decoration: [({g1}{g2}{g3}{g4}{g5})]
!!!RDF**kern: > = above
!!!RDF**kern: < = below
!!!RDF**kern: | = vertical stroke
!!!ENC: Marta Lawrence
!!!END: 2021-06-12
!!!ENC: Marcin Jachim
!!!END: 2021-06-09
